; generated by Slic3r 0.9.8-dev on 2012-12-18 at 21:49:02

; layer_height = 0.4
; perimeters = 3
; top_solid_layers = 3
; bottom_solid_layers = 3
; fill_density = 0.4
; perimeter_speed = 30
; infill_speed = 60
; travel_speed = 130
; scale = 1
; nozzle_diameter = 0.5
; filament_diameter = 3
; extrusion_multiplier = 1
; perimeters extrusion width = 0.53mm
; infill extrusion width = 0.53mm
; first layer extrusion width = 0.80mm

M107
M190 S60 ; wait for bed temperature to be reached
M104 S185 ; set temperature
G28 ; home all axes
M109 S185 ; wait for temperature to be reached
G90 ; use absolute coordinates
G21 ; set units to millimeters
G92 E0
M82 ; use absolute distances for extrusion
G1 F1800.000 E-1.00000
G92 E0
G1 Z0.400 F7800.000
G1 X58.872 Y73.497
G1 F1800.000 E1.00000
G1 X59.682 Y72.897 F540.000 E1.04196
G1 X60.002 Y72.697 E1.05767
G1 X61.012 Y72.177 E1.10496
G1 X61.352 Y72.037 E1.12027
G1 X62.192 Y71.757 E1.15712
G1 X62.872 Y71.587 E1.18630
G1 X63.552 Y71.477 E1.21498
G1 X64.252 Y71.437 E1.24416
G1 X135.732 Y71.437 E4.21970
G1 X136.072 Y71.447 E4.23386
G1 X136.742 Y71.517 E4.26190
G1 X137.082 Y71.577 E4.27627
G1 X137.762 Y71.747 E4.30545
G1 X138.642 Y72.037 E4.34402
G1 X138.982 Y72.177 E4.35933
G1 X139.652 Y72.497 E4.39024
G1 X140.072 Y72.747 E4.41058
G1 X140.382 Y72.947 E4.42594
G1 X141.022 Y73.417 E4.45899
G1 X141.312 Y73.657 E4.47466
G1 X142.132 Y74.467 E4.52264
G1 X142.372 Y74.747 E4.53800
G1 X143.052 Y75.687 E4.58629
G1 X143.242 Y76.007 E4.60178
G1 X143.612 Y76.727 E4.63548
G1 X143.862 Y77.297 E4.66139
G1 X144.102 Y78.007 E4.69259
G1 X144.242 Y78.587 E4.71743
G1 X144.352 Y79.197 E4.74323
G1 X144.392 Y79.507 E4.75624
G1 X144.422 Y80.127 E4.78208
G1 X144.412 Y120.157 E6.44843
G1 X144.392 Y120.457 E6.46095
G1 X144.312 Y121.057 E6.48614
G1 X144.172 Y121.707 E6.51382
G1 X143.952 Y122.447 E6.54596
G1 X143.612 Y123.267 E6.58291
G1 X143.192 Y124.067 E6.62052
G1 X143.002 Y124.377 E6.63566
G1 X142.452 Y125.147 E6.67505
G1 X142.042 Y125.637 E6.70165
G1 X141.512 Y126.167 E6.73285
G1 X141.022 Y126.577 E6.75944
G1 X140.252 Y127.127 E6.79883
G1 X139.942 Y127.317 E6.81397
G1 X139.142 Y127.737 E6.85158
G1 X138.562 Y127.987 E6.87787
G1 X138.082 Y128.157 E6.89907
G1 X137.582 Y128.297 E6.92068
G1 X136.932 Y128.437 E6.94836
G1 X136.332 Y128.517 E6.97356
G1 X135.732 Y128.547 E6.99857
G1 X64.252 Y128.547 E9.97410
G1 X63.632 Y128.517 E9.99994
G1 X63.012 Y128.427 E10.02602
G1 X62.372 Y128.287 E10.05329
G1 X61.892 Y128.157 E10.07400
G1 X61.422 Y127.987 E10.09480
G1 X60.852 Y127.737 E10.12071
G1 X60.132 Y127.367 E10.15441
G1 X59.812 Y127.177 E10.16990
G1 X58.872 Y126.497 E10.21820
G1 X58.592 Y126.257 E10.23355
G1 X57.782 Y125.437 E10.28153
G1 X57.542 Y125.147 E10.29720
G1 X57.072 Y124.507 E10.33025
G1 X56.742 Y123.987 E10.35589
G1 X56.622 Y123.777 E10.36596
G1 X56.302 Y123.107 E10.39687
G1 X56.162 Y122.767 E10.41217
G1 X55.872 Y121.887 E10.45074
G1 X55.702 Y121.207 E10.47992
G1 X55.642 Y120.867 E10.49429
G1 X55.572 Y120.197 E10.52233
G1 X55.562 Y119.857 E10.53649
G1 X55.572 Y79.797 E12.20409
G1 X55.642 Y79.127 E12.23213
G1 X55.702 Y78.787 E12.24651
G1 X55.872 Y78.107 E12.27568
G1 X56.162 Y77.227 E12.31425
G1 X56.302 Y76.887 E12.32956
G1 X56.822 Y75.877 E12.37685
G1 X57.022 Y75.557 E12.39256
G1 X57.622 Y74.747 E12.43452
G1 X57.862 Y74.467 E12.44987
G1 X58.592 Y73.737 E12.49285
G1 X58.788 Y73.569 E12.50360
G1 X58.872 Y73.497 E12.50820
G1 F1800.000 E11.50820
G92 E0
G1 X135.582 Y120.343 F7800.000
G1 F1800.000 E1.00000
G1 X64.418 Y120.343 F540.000 E3.96240
G1 X64.252 Y120.273 E3.96989
G1 X64.130 Y120.197 E3.97587
G1 X63.928 Y119.995 E3.98778
G1 X63.781 Y119.706 E4.00128
G1 X63.781 Y80.294 E5.64187
G1 X63.852 Y80.127 E5.64943
G1 X64.021 Y79.896 E5.66134
G1 X64.252 Y79.727 E5.67326
G1 X64.418 Y79.657 E5.68075
G1 X135.582 Y79.657 E8.64315
G1 X135.748 Y79.727 E8.65064
G1 X135.979 Y79.896 E8.66255
G1 X136.072 Y80.005 E8.66853
G1 X136.218 Y80.293 E8.68195
G1 X136.219 Y119.706 E10.32261
G1 X136.148 Y119.873 E10.33017
G1 X135.979 Y120.104 E10.34209
G1 X135.870 Y120.197 E10.34806
G1 X135.684 Y120.300 E10.35691
G1 X135.582 Y120.343 E10.36150
G1 X135.849 Y121.029 F7800.000
G1 X135.649 Y121.078 F540.000 E10.37007
G1 X64.351 Y121.078 E13.33807
G1 X64.151 Y121.029 E13.34663
G1 X63.914 Y120.929 E13.35735
G1 X63.695 Y120.793 E13.36807
G1 X63.499 Y120.626 E13.37878
G1 X63.332 Y120.430 E13.38950
G1 X63.196 Y120.211 E13.40021
G1 X63.096 Y119.974 E13.41093
G1 X63.046 Y119.772 E13.41962
G1 X63.046 Y80.228 E15.06571
G1 X63.096 Y80.026 E15.07439
G1 X63.196 Y79.789 E15.08511
G1 X63.332 Y79.570 E15.09583
G1 X63.499 Y79.374 E15.10654
G1 X63.695 Y79.207 E15.11726
G1 X63.914 Y79.071 E15.12797
G1 X64.151 Y78.971 E15.13869
G1 X64.351 Y78.922 E15.14726
G1 X135.649 Y78.922 E18.11525
G1 X135.849 Y78.971 E18.12382
G1 X136.086 Y79.071 E18.13454
G1 X136.305 Y79.207 E18.14525
G1 X136.501 Y79.374 E18.15597
G1 X136.668 Y79.570 E18.16669
G1 X136.804 Y79.789 E18.17740
G1 X136.904 Y80.026 E18.18812
G1 X136.953 Y80.226 E18.19669
G1 X136.954 Y119.772 E19.84289
G1 X136.904 Y119.974 E19.85158
G1 X136.804 Y120.211 E19.86229
G1 X136.668 Y120.430 E19.87301
G1 X136.501 Y120.626 E19.88373
G1 X136.305 Y120.793 E19.89444
G1 X136.086 Y120.929 E19.90516
G1 X135.951 Y120.986 E19.91128
G1 X135.849 Y121.029 E19.91588
G1 X136.082 Y121.729 F7800.000
G1 X135.740 Y121.814 F540.000 E19.93058
G1 X64.260 Y121.814 E22.90609
G1 X63.918 Y121.729 E22.92080
G1 X63.575 Y121.584 E22.93625
G1 X63.260 Y121.389 E22.95171
G1 X62.977 Y121.148 E22.96717
G1 X62.736 Y120.865 E22.98263
G1 X62.541 Y120.550 E22.99809
G1 X62.396 Y120.207 E23.01354
G1 X62.310 Y119.862 E23.02836
G1 X62.310 Y80.138 E24.68198
G1 X62.396 Y79.793 E24.69680
G1 X62.541 Y79.450 E24.71226
G1 X62.736 Y79.135 E24.72771
G1 X62.977 Y78.852 E24.74317
G1 X63.260 Y78.611 E24.75863
G1 X63.575 Y78.416 E24.77409
G1 X63.918 Y78.271 E24.78955
G1 X64.260 Y78.186 E24.80425
G1 X135.740 Y78.186 E27.77977
G1 X136.082 Y78.271 E27.79447
G1 X136.425 Y78.416 E27.80993
G1 X136.741 Y78.611 E27.82538
G1 X137.023 Y78.852 E27.84084
G1 X137.264 Y79.135 E27.85630
G1 X137.459 Y79.450 E27.87176
G1 X137.604 Y79.793 E27.88722
G1 X137.689 Y80.135 E27.90192
G1 X137.690 Y119.862 E29.55565
G1 X137.604 Y120.207 E29.57047
G1 X137.459 Y120.550 E29.58592
G1 X137.264 Y120.865 E29.60138
G1 X137.023 Y121.148 E29.61684
G1 X136.740 Y121.389 E29.63230
G1 X136.425 Y121.584 E29.64776
G1 X136.184 Y121.686 E29.65862
G1 X136.082 Y121.729 E29.66322
G1 X135.346 Y121.636 F7800.000
G1 F1800.000 E28.66322
G92 E0
G1 X64.751 Y119.841 F7800.000
G1 F1800.000 E1.00000
G1 X64.283 Y119.373 F1080.000 E1.02781
G1 X64.283 Y118.324 E1.07187
G1 X65.801 Y119.841 E1.16199
G1 X66.850 Y119.841 E1.20605
G1 X64.283 Y117.274 E1.35848
G1 X64.283 Y116.225 E1.40254
G1 X67.899 Y119.841 E1.61728
G1 X68.949 Y119.841 E1.66134
G1 X64.283 Y115.176 E1.93838
G1 X64.283 Y114.126 E1.98244
G1 X69.998 Y119.841 E2.32179
G1 X71.047 Y119.841 E2.36585
G1 X64.283 Y113.077 E2.76752
G1 X64.283 Y112.028 E2.81158
G1 X72.097 Y119.841 E3.27555
G1 X73.146 Y119.841 E3.31961
G1 X64.283 Y110.978 E3.84589
G1 X64.283 Y109.929 E3.88995
G1 X74.195 Y119.841 E4.47854
G1 X75.245 Y119.841 E4.52260
G1 X64.283 Y108.880 E5.17351
G1 X64.283 Y107.830 E5.21757
G1 X76.294 Y119.841 E5.93078
G1 X77.343 Y119.841 E5.97484
G1 X64.283 Y106.781 E6.75036
G1 X64.283 Y105.732 E6.79442
G1 X78.393 Y119.841 E7.63224
G1 X79.442 Y119.841 E7.67630
G1 X64.283 Y104.682 E8.57644
G1 X64.283 Y103.633 E8.62050
G1 X80.491 Y119.841 E9.58294
G1 X81.541 Y119.841 E9.62700
G1 X64.283 Y102.584 E10.65176
G1 X64.283 Y101.534 E10.69582
G1 X82.590 Y119.841 E11.78289
G1 X83.639 Y119.841 E11.82694
G1 X64.283 Y100.485 E12.97632
G1 X64.283 Y99.436 E13.02038
G1 X84.689 Y119.841 E14.23206
G1 X85.738 Y119.841 E14.27612
G1 X64.283 Y98.386 E15.55012
G1 X64.283 Y97.337 E15.59418
G1 X86.787 Y119.841 E16.93048
G1 X87.837 Y119.841 E16.97454
G1 X64.283 Y96.288 E18.37314
G1 X64.283 Y95.238 E18.41720
G1 X88.886 Y119.841 E19.87812
G1 X89.935 Y119.841 E19.92218
G1 X64.283 Y94.189 E21.44541
G1 X64.283 Y93.140 E21.48947
G1 X90.985 Y119.841 E23.07501
G1 X92.034 Y119.841 E23.11907
G1 X64.283 Y92.090 E24.76692
G1 X64.283 Y91.041 E24.81098
G1 X93.083 Y119.841 E26.52113
G1 X94.133 Y119.841 E26.56519
G1 X64.283 Y89.992 E28.33766
G1 X64.283 Y88.942 E28.38172
G1 X95.182 Y119.841 E30.21650
G1 X96.231 Y119.841 E30.26056
G1 X64.283 Y87.893 E32.15764
G1 X64.283 Y86.844 E32.20170
G1 X97.280 Y119.841 E34.16109
G1 X98.330 Y119.841 E34.20515
G1 X64.283 Y85.794 E36.22685
G1 X64.283 Y84.745 E36.27091
G1 X99.379 Y119.841 E38.35492
G1 X100.429 Y119.841 E38.39898
G1 X64.283 Y83.696 E40.54530
G1 X64.283 Y82.647 E40.58936
G1 X101.478 Y119.841 E42.79799
G1 X102.527 Y119.841 E42.84205
G1 X64.283 Y81.597 E45.11299
G1 X64.283 Y80.548 E45.15705
G1 X103.576 Y119.841 E47.49030
G1 X104.626 Y119.841 E47.53436
G1 X64.943 Y80.159 E49.89072
G1 X65.992 Y80.159 E49.93477
G1 X105.675 Y119.841 E52.29113
G1 X106.724 Y119.841 E52.33519
G1 X67.042 Y80.159 E54.69155
G1 X68.091 Y80.159 E54.73561
G1 X107.774 Y119.841 E57.09197
G1 X108.823 Y119.841 E57.13603
G1 X69.140 Y80.159 E59.49239
G1 X70.190 Y80.159 E59.53645
G1 X109.872 Y119.841 E61.89281
G1 X110.922 Y119.841 E61.93687
G1 X71.239 Y80.159 E64.29323
G1 X72.288 Y80.159 E64.33729
G1 X111.971 Y119.841 E66.69366
G1 X113.020 Y119.841 E66.73771
G1 X73.338 Y80.159 E69.09407
G1 X74.387 Y80.159 E69.13813
G1 X114.070 Y119.841 E71.49449
G1 X115.119 Y119.841 E71.53855
G1 X75.436 Y80.159 E73.89491
G1 X76.486 Y80.159 E73.93897
G1 X116.168 Y119.841 E76.29533
G1 X117.218 Y119.841 E76.33939
G1 X77.535 Y80.159 E78.69575
G1 X78.584 Y80.159 E78.73981
G1 X118.267 Y119.841 E81.09617
G1 X119.316 Y119.841 E81.14023
G1 X79.634 Y80.159 E83.49659
G1 X80.683 Y80.159 E83.54065
G1 X120.366 Y119.841 E85.89702
G1 X121.415 Y119.841 E85.94108
G1 X81.732 Y80.159 E88.29744
G1 X82.782 Y80.159 E88.34150
G1 X122.464 Y119.841 E90.69785
G1 X123.514 Y119.841 E90.74191
G1 X83.831 Y80.159 E93.09827
G1 X84.880 Y80.159 E93.14233
G1 X124.563 Y119.841 E95.49869
G1 X125.612 Y119.841 E95.54275
G1 X85.930 Y80.159 E97.89911
G1 X86.979 Y80.159 E97.94317
G1 X126.662 Y119.841 E100.29953
G1 X127.711 Y119.841 E100.34359
G1 X88.028 Y80.159 E102.69995
G1 X89.078 Y80.159 E102.74401
G1 X128.760 Y119.841 E105.10037
G1 X129.810 Y119.841 E105.14443
G1 X90.127 Y80.159 E107.50080
G1 X91.176 Y80.159 E107.54486
G1 X130.859 Y119.841 E109.90121
G1 X131.908 Y119.841 E109.94527
G1 X92.226 Y80.159 E112.30163
G1 X93.275 Y80.159 E112.34569
G1 X132.958 Y119.841 E114.70205
G1 X134.007 Y119.841 E114.74611
G1 X94.324 Y80.159 E117.10247
G1 X95.374 Y80.159 E117.14653
G1 X135.056 Y119.841 E119.50289
G1 X135.717 Y119.453 E119.53508
G1 X96.423 Y80.159 E121.86836
G1 X97.472 Y80.159 E121.91242
G1 X135.717 Y118.403 E124.18339
G1 X135.717 Y117.354 E124.22745
G1 X98.522 Y80.159 E126.43612
G1 X99.571 Y80.159 E126.48018
G1 X135.717 Y116.305 E128.62653
G1 X135.717 Y115.255 E128.67059
G1 X100.620 Y80.159 E130.75464
G1 X101.670 Y80.159 E130.79870
G1 X135.717 Y114.206 E132.82043
G1 X135.717 Y113.157 E132.86449
G1 X102.719 Y80.159 E134.82392
G1 X103.768 Y80.159 E134.86798
G1 X135.717 Y112.107 E136.76510
G1 X135.717 Y111.058 E136.80916
G1 X104.818 Y80.159 E138.64396
G1 X105.867 Y80.159 E138.68802
G1 X135.717 Y110.009 E140.46051
G1 X135.717 Y108.959 E140.50457
G1 X106.916 Y80.159 E142.21476
G1 X107.966 Y80.159 E142.25882
G1 X135.717 Y107.910 E143.90669
G1 X135.717 Y106.861 E143.95075
G1 X109.015 Y80.159 E145.53631
G1 X110.064 Y80.159 E145.58037
G1 X135.717 Y105.811 E147.10362
G1 X135.717 Y104.762 E147.14768
G1 X111.113 Y80.159 E148.60863
G1 X112.163 Y80.159 E148.65269
G1 X135.717 Y103.713 E150.05132
G1 X135.717 Y102.663 E150.09538
G1 X113.212 Y80.159 E151.43170
G1 X114.261 Y80.159 E151.47575
G1 X135.717 Y101.614 E152.74976
G1 X135.717 Y100.565 E152.79382
G1 X115.311 Y80.159 E154.00553
G1 X116.360 Y80.159 E154.04959
G1 X135.717 Y99.515 E155.19898
G1 X135.716 Y98.466 E155.24304
G1 X117.409 Y80.159 E156.33012
G1 X118.459 Y80.159 E156.37418
G1 X135.716 Y97.417 E157.39895
G1 X135.716 Y96.367 E157.44301
G1 X119.508 Y80.159 E158.40547
G1 X120.557 Y80.159 E158.44953
G1 X135.716 Y95.318 E159.34968
G1 X135.716 Y94.269 E159.39374
G1 X121.607 Y80.159 E160.23158
G1 X122.656 Y80.159 E160.27564
G1 X135.716 Y93.219 E161.05117
G1 X135.716 Y92.170 E161.09524
G1 X123.705 Y80.159 E161.80845
G1 X124.755 Y80.159 E161.85251
G1 X135.716 Y91.121 E162.50342
G1 X135.716 Y90.071 E162.54748
G1 X125.804 Y80.159 E163.13608
G1 X126.853 Y80.159 E163.18014
G1 X135.716 Y89.022 E163.70643
G1 X135.716 Y87.972 E163.75049
G1 X127.903 Y80.159 E164.21446
G1 X128.952 Y80.159 E164.25852
G1 X135.716 Y86.923 E164.66019
G1 X135.716 Y85.874 E164.70426
G1 X130.001 Y80.159 E165.04361
G1 X131.051 Y80.159 E165.08767
G1 X135.716 Y84.824 E165.36472
G1 X135.716 Y83.775 E165.40878
G1 X132.100 Y80.159 E165.62352
G1 X133.149 Y80.159 E165.66758
G1 X135.716 Y82.726 E165.82001
G1 X135.716 Y81.676 E165.86407
G1 X134.199 Y80.159 E165.95418
G1 X135.248 Y80.159 E165.99824
G1 X135.716 Y80.627 E166.02605
G1 F1800.000 E165.02605
G92 E0
G1 Z0.800 F7800.000
G1 X135.629 Y120.912
G1 F1800.000 E1.00000
G1 X64.371 Y120.912 F1800.000 E3.09536
G1 X64.204 Y120.871 E3.10044
G1 X63.990 Y120.781 E3.10725
G1 X63.793 Y120.659 E3.11406
G1 X63.617 Y120.508 E3.12088
G1 X63.466 Y120.332 E3.12769
G1 X63.344 Y120.135 E3.13450
G1 X63.254 Y119.921 E3.14132
G1 X63.211 Y119.746 E3.14664
G1 X63.211 Y80.254 E4.30790
G1 X63.254 Y80.079 E4.31323
G1 X63.344 Y79.865 E4.32004
G1 X63.466 Y79.668 E4.32685
G1 X63.617 Y79.492 E4.33366
G1 X63.793 Y79.341 E4.34048
G1 X63.990 Y79.219 E4.34729
G1 X64.204 Y79.129 E4.35410
G1 X64.371 Y79.088 E4.35918
G1 X135.629 Y79.088 E6.45454
G1 X135.796 Y79.129 E6.45962
G1 X136.010 Y79.219 E6.46643
G1 X136.207 Y79.341 E6.47324
G1 X136.383 Y79.492 E6.48006
G1 X136.534 Y79.668 E6.48687
G1 X136.656 Y79.865 E6.49368
G1 X136.746 Y80.079 E6.50050
G1 X136.787 Y80.246 E6.50557
G1 X136.789 Y119.746 E7.66707
G1 X136.746 Y119.921 E7.67240
G1 X136.656 Y120.135 E7.67921
G1 X136.534 Y120.332 E7.68602
G1 X136.383 Y120.508 E7.69284
G1 X136.207 Y120.659 E7.69965
G1 X136.010 Y120.781 E7.70646
G1 X135.705 Y120.893 E7.71603
G1 X135.629 Y120.912 E7.71833
G1 X135.693 Y121.432 F7800.000
G1 X64.307 Y121.432 F1800.000 E9.81744
G1 X64.039 Y121.365 E9.82558
G1 X63.751 Y121.244 E9.83476
G1 X63.486 Y121.080 E9.84394
G1 X63.248 Y120.877 E9.85312
G1 X63.045 Y120.639 E9.86230
G1 X62.881 Y120.374 E9.87148
G1 X62.760 Y120.086 E9.88065
G1 X62.691 Y119.810 E9.88904
G1 X62.691 Y80.190 E11.05405
G1 X62.760 Y79.914 E11.06244
G1 X62.881 Y79.626 E11.07162
G1 X63.045 Y79.361 E11.08080
G1 X63.248 Y79.123 E11.08998
G1 X63.486 Y78.920 E11.09916
G1 X63.751 Y78.756 E11.10834
G1 X64.059 Y78.630 E11.11813
G1 X64.307 Y78.568 E11.12564
G1 X135.693 Y78.568 E13.22476
G1 X135.961 Y78.635 E13.23290
G1 X136.249 Y78.756 E13.24207
G1 X136.531 Y78.934 E13.25187
G1 X136.752 Y79.123 E13.26043
G1 X136.955 Y79.361 E13.26961
G1 X137.119 Y79.626 E13.27878
G1 X137.240 Y79.914 E13.28796
G1 X137.307 Y80.182 E13.29610
G1 X137.309 Y119.810 E14.46135
G1 X137.240 Y120.086 E14.46974
G1 X137.119 Y120.374 E14.47892
G1 X136.955 Y120.639 E14.48810
G1 X136.752 Y120.877 E14.49728
G1 X136.514 Y121.080 E14.50646
G1 X136.249 Y121.244 E14.51564
G1 X135.961 Y121.365 E14.52482
G1 X135.768 Y121.413 E14.53066
G1 X135.693 Y121.432 E14.53295
G1 X135.757 Y121.952 F7800.000
G1 X64.243 Y121.952 F1800.000 E16.63582
G1 X63.874 Y121.859 E16.64702
G1 X63.512 Y121.707 E16.65856
G1 X63.178 Y121.500 E16.67011
G1 X62.880 Y121.245 E16.68165
G1 X62.625 Y120.947 E16.69320
G1 X62.418 Y120.613 E16.70475
G1 X62.266 Y120.251 E16.71629
G1 X62.171 Y119.873 E16.72774
G1 X62.171 Y80.127 E17.89650
G1 X62.266 Y79.749 E17.90795
G1 X62.418 Y79.387 E17.91950
G1 X62.625 Y79.053 E17.93104
G1 X62.880 Y78.755 E17.94259
G1 X63.178 Y78.500 E17.95413
G1 X63.512 Y78.293 E17.96568
G1 X63.874 Y78.141 E17.97722
G1 X64.243 Y78.048 E17.98842
G1 X135.757 Y78.048 E20.09129
G1 X136.126 Y78.141 E20.10249
G1 X136.488 Y78.293 E20.11403
G1 X136.869 Y78.540 E20.12737
G1 X137.120 Y78.755 E20.13710
G1 X137.375 Y79.053 E20.14865
G1 X137.582 Y79.387 E20.16019
