; generated by Slic3r 0.8.4 on 2012-12-18 at 14:44:26

; layer_height = 0.25
; perimeters = 1
; solid_layers = 3
; fill_density = 0.4
; nozzle_diameter = 0.35
; filament_diameter = 3
; extrusion_multiplier = 1
; perimeter_speed = 30
; infill_speed = 60
; travel_speed = 130
; scale = 1
; single wall width = 0.37mm

M107
M104 S225 ; set temperature
M106 ; turn on fan
G28 ; home all axes
M104 S225 ; turn off temperature
M190 S80 ; set bed temperature
M109 S225 ; wait for temperature to be reached
G90 ; use absolute coordinates
G21 ; set units to millimeters
G92 E0 ; reset extrusion distance
M82 ; use absolute distances for extrusion
G1 Z0.250 F7800.000
G1 X58.313 Y71.160
G1 F1800.000 E1.00000
G1 X58.633 Y70.850 F540.000 E1.00573
G1 X59.563 Y70.100 E1.02110
G1 X59.893 Y69.870 E1.02628
G1 X60.753 Y69.370 E1.03907
G1 X61.123 Y69.190 E1.04437
G1 X61.843 Y68.890 E1.05440
G1 X62.223 Y68.760 E1.05957
G1 X63.183 Y68.510 E1.07233
G1 X63.583 Y68.440 E1.07756
G1 X64.603 Y68.340 E1.09074
G1 X65.083 Y68.320 E1.09692
G1 X135.363 Y68.340 E2.00106
G1 X136.433 Y68.450 E2.01490
G1 X136.823 Y68.520 E2.02000
G1 X137.713 Y68.750 E2.03182
G1 X138.103 Y68.880 E2.03711
G1 X138.933 Y69.220 E2.04865
G1 X139.293 Y69.400 E2.05383
G1 X140.013 Y69.820 E2.06455
G1 X140.963 Y70.510 E2.07966
G1 X141.263 Y70.770 E2.08476
G1 X141.893 Y71.400 E2.09623
G1 X142.163 Y71.710 E2.10151
G1 X142.653 Y72.360 E2.11199
G1 X142.873 Y72.690 E2.11709
G1 X143.303 Y73.440 E2.12821
G1 X143.483 Y73.810 E2.13350
G1 X143.783 Y74.530 E2.14354
G1 X143.913 Y74.910 E2.14871
G1 X144.133 Y75.720 E2.15950
G1 X144.213 Y76.120 E2.16475
G1 X144.313 Y76.890 E2.17474
G1 X144.363 Y77.770 E2.18608
G1 X144.343 Y122.700 E2.76410
G1 X144.313 Y123.100 E2.76926
G1 X144.213 Y123.870 E2.77925
G1 X144.133 Y124.270 E2.78449
G1 X143.913 Y125.080 E2.79529
G1 X143.783 Y125.460 E2.80046
G1 X143.483 Y126.180 E2.81049
G1 X143.303 Y126.550 E2.81579
G1 X142.873 Y127.300 E2.82691
G1 X142.653 Y127.630 E2.83201
G1 X142.163 Y128.280 E2.84248
G1 X141.893 Y128.590 E2.84777
G1 X141.263 Y129.220 E2.85923
G1 X140.963 Y129.480 E2.86434
G1 X140.013 Y130.170 E2.87945
G1 X139.293 Y130.590 E2.89017
G1 X138.933 Y130.770 E2.89535
G1 X138.103 Y131.110 E2.90689
G1 X137.713 Y131.240 E2.91217
G1 X136.823 Y131.470 E2.92400
G1 X136.433 Y131.540 E2.92910
G1 X135.363 Y131.650 E2.94294
G1 X134.903 Y131.670 E2.94886
G1 X64.603 Y131.650 E3.85326
G1 X63.583 Y131.550 E3.86644
G1 X63.183 Y131.480 E3.87167
G1 X62.223 Y131.230 E3.88443
G1 X61.843 Y131.100 E3.88960
G1 X61.123 Y130.800 E3.89963
G1 X60.753 Y130.620 E3.90492
G1 X59.893 Y130.120 E3.91772
G1 X59.113 Y129.540 E3.93023
G1 X58.633 Y129.140 E3.93826
G1 X58.163 Y128.670 E3.94681
G1 X57.413 Y127.740 E3.96218
G1 X57.183 Y127.410 E3.96736
G1 X56.683 Y126.550 E3.98016
G1 X56.503 Y126.180 E3.98545
G1 X56.203 Y125.460 E3.99549
G1 X56.073 Y125.080 E4.00065
G1 X55.823 Y124.120 E4.01341
G1 X55.753 Y123.720 E4.01864
G1 X55.653 Y122.700 E4.03182
G1 X55.653 Y77.290 E4.61602
G1 X55.753 Y76.270 E4.62920
G1 X55.823 Y75.870 E4.63442
G1 X56.073 Y74.910 E4.64719
G1 X56.203 Y74.530 E4.65235
G1 X56.503 Y73.810 E4.66239
G1 X56.683 Y73.440 E4.66768
G1 X57.183 Y72.580 E4.68048
G1 X57.763 Y71.800 E4.69298
G1 X58.163 Y71.320 E4.70102
G1 X58.275 Y71.200 E4.70313
G1 F1800.000 E3.70313
G92 E0
G1 X135.269 Y124.931 F7800.000
G1 F1800.000 E1.00000
G1 X134.898 Y124.956 F540.000 E1.00478
G1 X65.102 Y124.956 E1.90269
G1 X64.731 Y124.931 E1.90747
G1 X64.381 Y124.862 E1.91206
G1 X64.043 Y124.747 E1.91666
G1 X63.723 Y124.589 E1.92125
G1 X63.426 Y124.391 E1.92584
G1 X63.158 Y124.155 E1.93044
G1 X62.922 Y123.887 E1.93503
G1 X62.724 Y123.590 E1.93962
G1 X62.566 Y123.270 E1.94422
G1 X62.451 Y122.931 E1.94881
G1 X62.381 Y122.581 E1.95340
G1 X62.357 Y122.210 E1.95819
G1 X62.357 Y77.790 E2.52965
G1 X62.381 Y77.419 E2.53443
G1 X62.451 Y77.069 E2.53903
G1 X62.566 Y76.730 E2.54362
G1 X62.724 Y76.410 E2.54821
G1 X62.922 Y76.113 E2.55281
G1 X63.158 Y75.845 E2.55740
G1 X63.426 Y75.609 E2.56199
G1 X63.723 Y75.411 E2.56659
G1 X64.043 Y75.253 E2.57118
G1 X64.381 Y75.138 E2.57577
G1 X64.731 Y75.069 E2.58037
G1 X65.102 Y75.044 E2.58515
G1 X134.898 Y75.044 E3.48306
G1 X135.269 Y75.069 E3.48784
G1 X135.619 Y75.138 E3.49243
G1 X135.957 Y75.253 E3.49702
G1 X136.277 Y75.411 E3.50162
G1 X136.574 Y75.609 E3.50621
G1 X136.842 Y75.845 E3.51081
G1 X137.078 Y76.113 E3.51540
G1 X137.276 Y76.410 E3.51999
G1 X137.434 Y76.730 E3.52459
G1 X137.549 Y77.069 E3.52918
G1 X137.619 Y77.419 E3.53377
G1 X137.643 Y77.790 E3.53855
G1 X137.643 Y122.210 E4.11002
G1 X137.619 Y122.581 E4.11480
G1 X137.549 Y122.931 E4.11940
G1 X137.434 Y123.270 E4.12399
G1 X137.276 Y123.590 E4.12858
G1 X137.078 Y123.887 E4.13318
G1 X136.842 Y124.155 E4.13777
G1 X136.574 Y124.391 E4.14236
G1 X136.277 Y124.589 E4.14696
G1 X135.957 Y124.747 E4.15155
G1 X135.619 Y124.862 E4.15614
G1 X135.323 Y124.921 E4.16003
G1 X135.316 Y125.290 F7800.000
G1 X134.910 Y125.316 F540.000 E4.16526
G1 X65.090 Y125.316 E5.06348
G1 X64.684 Y125.290 E5.06871
G1 X64.288 Y125.211 E5.07391
G1 X63.905 Y125.081 E5.07912
G1 X63.542 Y124.902 E5.08432
G1 X63.206 Y124.677 E5.08952
G1 X62.902 Y124.411 E5.09472
G1 X62.635 Y124.107 E5.09992
G1 X62.411 Y123.771 E5.10512
G1 X62.232 Y123.408 E5.11033
G1 X62.102 Y123.025 E5.11553
G1 X62.023 Y122.628 E5.12073
G1 X61.996 Y122.222 E5.12597
G1 X61.996 Y77.778 E5.69774
G1 X62.023 Y77.372 E5.70297
G1 X62.102 Y76.975 E5.70818
G1 X62.232 Y76.592 E5.71338
G1 X62.411 Y76.229 E5.71858
G1 X62.635 Y75.893 E5.72378
G1 X62.902 Y75.589 E5.72898
G1 X63.206 Y75.323 E5.73418
G1 X63.542 Y75.098 E5.73939
G1 X63.905 Y74.919 E5.74459
G1 X64.288 Y74.789 E5.74979
G1 X64.684 Y74.710 E5.75499
G1 X65.090 Y74.684 E5.76023
G1 X134.910 Y74.684 E6.65844
G1 X135.316 Y74.710 E6.66368
G1 X135.712 Y74.789 E6.66888
G1 X136.095 Y74.919 E6.67408
G1 X136.458 Y75.098 E6.67928
G1 X136.794 Y75.323 E6.68448
G1 X137.098 Y75.589 E6.68968
G1 X137.365 Y75.893 E6.69489
G1 X137.589 Y76.229 E6.70009
G1 X137.768 Y76.592 E6.70529
G1 X137.898 Y76.975 E6.71049
G1 X137.977 Y77.372 E6.71569
G1 X138.004 Y77.778 E6.72093
G1 X138.004 Y122.222 E7.29270
G1 X137.977 Y122.629 E7.29794
G1 X137.898 Y123.025 E7.30314
G1 X137.768 Y123.408 E7.30834
G1 X137.589 Y123.771 E7.31354
G1 X137.365 Y124.107 E7.31874
G1 X137.098 Y124.411 E7.32395
G1 X136.794 Y124.677 E7.32915
G1 X136.458 Y124.902 E7.33435
G1 X136.095 Y125.081 E7.33955
G1 X135.712 Y125.211 E7.34475
G1 X135.370 Y125.279 E7.34924
G1 X135.034 Y124.595 F7800.000
G1 X64.965 Y124.595 F1080.000 E8.25067
G1 X63.692 Y124.234 E8.26769
G1 X136.307 Y124.234 E9.20186
G1 X136.759 Y123.872 E9.20931
G1 X63.241 Y123.872 E10.15511
G1 X62.957 Y123.510 E10.16103
G1 X137.043 Y123.510 E11.11413
G1 X137.239 Y123.148 E11.11943
G1 X62.761 Y123.148 E12.07758
G1 X62.643 Y122.787 E12.08247
G1 X137.357 Y122.787 E13.04365
G1 X137.414 Y122.425 E13.04837
G1 X62.585 Y122.425 E14.01103
G1 X62.571 Y122.063 E14.01569
G1 X137.429 Y122.063 E14.97873
G1 X137.429 Y121.702 E14.98337
G1 X62.571 Y121.702 E15.94641
G1 X62.571 Y121.340 E15.95107
G1 X137.429 Y121.340 E16.91411
G1 X137.429 Y120.978 E16.91877
G1 X62.571 Y120.978 E17.88181
G1 X62.571 Y120.617 E17.88645
G1 X137.429 Y120.617 E18.84949
G1 X137.429 Y120.255 E18.85415
G1 X62.571 Y120.255 E19.81719
G1 X62.571 Y119.893 E19.82185
G1 X137.429 Y119.893 E20.78489
G1 X137.429 Y119.532 E20.78953
G1 X62.571 Y119.532 E21.75257
G1 X62.571 Y119.170 E21.75723
G1 X137.429 Y119.170 E22.72027
G1 X137.429 Y118.808 E22.72493
G1 X62.571 Y118.808 E23.68797
G1 X62.571 Y118.446 E23.69262
G1 X137.429 Y118.446 E24.65566
G1 X137.429 Y118.085 E24.66031
G1 X62.571 Y118.085 E25.62335
G1 X62.571 Y117.723 E25.62801
G1 X137.429 Y117.723 E26.59105
G1 X137.429 Y117.361 E26.59570
G1 X62.571 Y117.361 E27.55874
G1 X62.571 Y117.000 E27.56339
G1 X137.429 Y117.000 E28.52643
G1 X137.429 Y116.638 E28.53109
G1 X62.571 Y116.638 E29.49413
G1 X62.571 Y116.276 E29.49878
G1 X137.429 Y116.276 E30.46182
G1 X137.429 Y115.915 E30.46647
G1 X62.571 Y115.915 E31.42951
G1 X62.571 Y115.553 E31.43417
G1 X137.429 Y115.553 E32.39721
G1 X137.429 Y115.191 E32.40186
G1 X62.571 Y115.191 E33.36490
G1 X62.571 Y114.830 E33.36955
G1 X137.429 Y114.830 E34.33259
G1 X137.429 Y114.468 E34.33725
G1 X62.571 Y114.468 E35.30029
G1 X62.571 Y114.106 E35.30494
G1 X137.429 Y114.106 E36.26798
G1 X137.429 Y113.744 E36.27264
G1 X62.571 Y113.744 E37.23568
G1 X62.571 Y113.383 E37.24033
G1 X137.429 Y113.383 E38.20337
G1 X137.429 Y113.021 E38.20802
G1 X62.571 Y113.021 E39.17106
G1 X62.571 Y112.659 E39.17572
G1 X137.429 Y112.659 E40.13876
G1 X137.429 Y112.298 E40.14341
G1 X62.571 Y112.298 E41.10645
G1 X62.571 Y111.936 E41.11110
G1 X137.429 Y111.936 E42.07414
G1 X137.429 Y111.574 E42.07880
G1 X62.571 Y111.574 E43.04184
G1 X62.571 Y111.213 E43.04649
G1 X137.429 Y111.213 E44.00953
G1 X137.429 Y110.851 E44.01418
G1 X62.571 Y110.851 E44.97722
G1 X62.571 Y110.489 E44.98188
G1 X137.429 Y110.489 E45.94492
G1 X137.429 Y110.128 E45.94957
G1 X62.571 Y110.128 E46.91261
G1 X62.571 Y109.766 E46.91726
G1 X137.429 Y109.766 E47.88030
G1 X137.429 Y109.404 E47.88496
G1 X62.571 Y109.404 E48.84800
G1 X62.571 Y109.042 E48.85266
G1 X137.429 Y109.042 E49.81570
G1 X137.429 Y108.681 E49.82034
G1 X62.571 Y108.681 E50.78338
G1 X62.571 Y108.319 E50.78804
G1 X137.429 Y108.319 E51.75108
G1 X137.429 Y107.957 E51.75574
G1 X62.571 Y107.957 E52.71878
G1 X62.571 Y107.596 E52.72342
G1 X137.429 Y107.596 E53.68646
G1 X137.429 Y107.234 E53.69112
G1 X62.571 Y107.234 E54.65416
G1 X62.571 Y106.872 E54.65882
G1 X137.429 Y106.872 E55.62186
G1 X137.429 Y106.511 E55.62650
G1 X62.571 Y106.511 E56.58954
G1 X62.571 Y106.149 E56.59420
G1 X137.429 Y106.149 E57.55724
G1 X137.429 Y105.787 E57.56190
G1 X62.571 Y105.787 E58.52494
G1 X62.571 Y105.426 E58.52958
G1 X137.429 Y105.426 E59.49262
G1 X137.429 Y105.064 E59.49728
G1 X62.571 Y105.064 E60.46032
G1 X62.571 Y104.702 E60.46498
G1 X137.429 Y104.702 E61.42802
G1 X137.429 Y104.340 E61.43267
G1 X62.571 Y104.340 E62.39572
G1 X62.571 Y103.979 E62.40036
G1 X137.429 Y103.979 E63.36340
G1 X137.429 Y103.617 E63.36806
G1 X62.571 Y103.617 E64.33110
G1 X62.571 Y103.255 E64.33575
G1 X137.429 Y103.255 E65.29880
G1 X137.429 Y102.894 E65.30344
G1 X62.571 Y102.894 E66.26648
G1 X62.571 Y102.532 E66.27114
G1 X137.429 Y102.532 E67.23418
G1 X137.429 Y102.170 E67.23883
G1 X62.571 Y102.170 E68.20188
G1 X62.571 Y101.809 E68.20652
G1 X137.429 Y101.809 E69.16956
G1 X137.429 Y101.447 E69.17422
G1 X62.571 Y101.447 E70.13726
G1 X62.571 Y101.085 E70.14191
G1 X137.429 Y101.085 E71.10496
G1 X137.429 Y100.724 E71.10960
G1 X62.571 Y100.724 E72.07264
G1 X62.571 Y100.362 E72.07730
G1 X137.429 Y100.362 E73.04034
G1 X137.429 Y100.000 E73.04499
G1 X62.571 Y100.000 E74.00803
G1 X62.571 Y99.638 E74.01269
G1 X137.429 Y99.638 E74.97573
G1 X137.429 Y99.277 E74.98038
G1 X62.571 Y99.277 E75.94342
G1 X62.571 Y98.915 E75.94807
G1 X137.429 Y98.915 E76.91111
G1 X137.429 Y98.553 E76.91577
G1 X62.571 Y98.553 E77.87881
G1 X62.571 Y98.192 E77.88346
G1 X137.429 Y98.192 E78.84650
G1 X137.429 Y97.830 E78.85115
G1 X62.571 Y97.830 E79.81419
G1 X62.571 Y97.468 E79.81885
G1 X137.429 Y97.468 E80.78189
G1 X137.429 Y97.107 E80.78654
G1 X62.571 Y97.107 E81.74958
G1 X62.571 Y96.745 E81.75423
G1 X137.429 Y96.745 E82.71727
G1 X137.429 Y96.383 E82.72193
G1 X62.571 Y96.383 E83.68497
G1 X62.571 Y96.022 E83.68962
G1 X137.429 Y96.022 E84.65266
G1 X137.429 Y95.660 E84.65731
G1 X62.571 Y95.660 E85.62035
G1 X62.571 Y95.298 E85.62501
G1 X137.429 Y95.298 E86.58805
G1 X137.429 Y94.936 E86.59271
G1 X62.571 Y94.936 E87.55575
G1 X62.571 Y94.575 E87.56039
G1 X137.429 Y94.575 E88.52343
G1 X137.429 Y94.213 E88.52809
G1 X62.571 Y94.213 E89.49113
G1 X62.571 Y93.851 E89.49579
G1 X137.429 Y93.851 E90.45883
G1 X137.429 Y93.490 E90.46347
G1 X62.571 Y93.490 E91.42651
G1 X62.571 Y93.128 E91.43117
G1 X137.429 Y93.128 E92.39421
G1 X137.429 Y92.766 E92.39887
G1 X62.571 Y92.766 E93.36191
G1 X62.571 Y92.405 E93.36655
G1 X137.429 Y92.405 E94.32959
G1 X137.429 Y92.043 E94.33425
G1 X62.571 Y92.043 E95.29729
G1 X62.571 Y91.681 E95.30195
G1 X137.429 Y91.681 E96.26499
G1 X137.429 Y91.320 E96.26963
G1 X62.571 Y91.320 E97.23267
G1 X62.571 Y90.958 E97.23733
G1 X137.429 Y90.958 E98.20037
G1 X137.429 Y90.596 E98.20503
G1 X62.571 Y90.596 E99.16807
G1 X62.571 Y90.234 E99.17273
G1 X137.429 Y90.234 E100.13577
G1 X137.429 Y89.873 E100.14041
G1 X62.571 Y89.873 E101.10345
G1 X62.571 Y89.511 E101.10811
G1 X137.429 Y89.511 E102.07115
G1 X137.429 Y89.149 E102.07581
G1 X62.571 Y89.149 E103.03885
G1 X62.571 Y88.788 E103.04349
G1 X137.429 Y88.788 E104.00653
G1 X137.429 Y88.426 E104.01119
G1 X62.571 Y88.426 E104.97423
G1 X62.571 Y88.064 E104.97889
G1 X137.429 Y88.064 E105.94193
G1 X137.429 Y87.703 E105.94657
G1 X62.571 Y87.703 E106.90961
G1 X62.571 Y87.341 E106.91427
G1 X137.429 Y87.341 E107.87731
G1 X137.429 Y86.979 E107.88197
G1 X62.571 Y86.979 E108.84501
G1 X62.571 Y86.618 E108.84965
G1 X137.429 Y86.618 E109.81269
G1 X137.429 Y86.256 E109.81735
G1 X62.571 Y86.256 E110.78039
G1 X62.571 Y85.894 E110.78505
G1 X137.429 Y85.894 E111.74809
G1 X137.429 Y85.532 E111.75274
G1 X62.571 Y85.532 E112.71578
G1 X62.571 Y85.171 E112.72043
G1 X137.429 Y85.171 E113.68347
G1 X137.429 Y84.809 E113.68813
G1 X62.571 Y84.809 E114.65117
G1 X62.571 Y84.447 E114.65582
G1 X137.429 Y84.447 E115.61886
G1 X137.429 Y84.086 E115.62351
G1 X62.571 Y84.086 E116.58655
G1 X62.571 Y83.724 E116.59121
G1 X137.429 Y83.724 E117.55425
G1 X137.429 Y83.362 E117.55890
G1 X62.571 Y83.362 E118.52194
G1 X62.571 Y83.001 E118.52659
G1 X137.429 Y83.001 E119.48963
G1 X137.429 Y82.639 E119.49429
G1 X62.571 Y82.639 E120.45733
G1 X62.571 Y82.277 E120.46198
G1 X137.429 Y82.277 E121.42502
G1 X137.429 Y81.916 E121.42967
G1 X62.571 Y81.916 E122.39271
G1 X62.571 Y81.554 E122.39736
G1 X137.429 Y81.554 E123.36041
G1 X137.429 Y81.192 E123.36506
G1 X62.571 Y81.192 E124.32810
G1 X62.571 Y80.830 E124.33276
G1 X137.429 Y80.830 E125.29580
G1 X137.429 Y80.469 E125.30044
G1 X62.571 Y80.469 E126.26349
G1 X62.571 Y80.107 E126.26814
G1 X137.429 Y80.107 E127.23118
G1 X137.429 Y79.745 E127.23584
G1 X62.571 Y79.745 E128.19888
G1 X62.571 Y79.384 E128.20352
G1 X137.429 Y79.384 E129.16657
G1 X137.429 Y79.022 E129.17122
G1 X62.571 Y79.022 E130.13426
G1 X62.571 Y78.660 E130.13892
G1 X137.429 Y78.660 E131.10196
G1 X137.429 Y78.299 E131.10660
G1 X62.571 Y78.299 E132.06965
G1 X62.571 Y77.937 E132.07430
G1 X137.429 Y77.937 E133.03734
G1 X137.414 Y77.575 E133.04200
G1 X62.585 Y77.575 E134.00466
G1 X62.643 Y77.214 E134.00936
G1 X137.357 Y77.214 E134.97055
G1 X137.239 Y76.852 E134.97545
G1 X62.761 Y76.852 E135.93360
G1 X62.957 Y76.490 E135.93889
G1 X137.043 Y76.490 E136.89200
G1 X136.758 Y76.128 E136.89793
G1 X63.241 Y76.128 E137.84370
G1 X63.693 Y75.767 E137.85114
G1 X136.307 Y75.767 E138.78531
M106 S89
G1 F1800.000 E137.78531
G92 E0
G1 Z0.500 F7800.000
G1 X135.269 Y124.931
G1 F1800.000 E1.00000
G1 X134.898 Y124.956 F1800.000 E1.00478
G1 X65.102 Y124.956 E1.90269
G1 X64.731 Y124.931 E1.90747
G1 X64.381 Y124.862 E1.91206
G1 X64.043 Y124.747 E1.91666
G1 X63.723 Y124.589 E1.92125
G1 X63.426 Y124.391 E1.92584
G1 X63.158 Y124.155 E1.93044
G1 X62.922 Y123.887 E1.93503
G1 X62.724 Y123.590 E1.93962
G1 X62.566 Y123.270 E1.94422
G1 X62.451 Y122.931 E1.94881
G1 X62.381 Y122.581 E1.95340
G1 X62.357 Y122.210 E1.95818
G1 X62.357 Y77.790 E2.52965
G1 X62.381 Y77.419 E2.53443
G1 X62.451 Y77.069 E2.53903
G1 X62.566 Y76.730 E2.54362
G1 X62.724 Y76.410 E2.54821
G1 X62.922 Y76.113 E2.55281
G1 X63.158 Y75.845 E2.55740
G1 X63.426 Y75.609 E2.56199
G1 X63.723 Y75.411 E2.56659
G1 X64.043 Y75.253 E2.57118
G1 X64.381 Y75.138 E2.57577
G1 X64.731 Y75.069 E2.58037
G1 X65.102 Y75.044 E2.58515
G1 X134.898 Y75.044 E3.48306
G1 X135.269 Y75.069 E3.48784
G1 X135.619 Y75.138 E3.49243
G1 X135.957 Y75.253 E3.49702
G1 X136.277 Y75.411 E3.50162
G1 X136.574 Y75.609 E3.50621
G1 X136.842 Y75.845 E3.51081
G1 X137.078 Y76.113 E3.51540
G1 X137.276 Y76.410 E3.51999
G1 X137.434 Y76.730 E3.52459
G1 X137.549 Y77.069 E3.52918
G1 X137.619 Y77.419 E3.53377
G1 X137.643 Y77.790 E3.53855
G1 X137.643 Y122.210 E4.11002
G1 X137.619 Y122.581 E4.11480
G1 X137.549 Y122.932 E4.11940
