; generated by Slic3r 0.8.4 on 2012-12-18 at 15:27:30

; layer_height = 0.25
; perimeters = 1
; solid_layers = 3
; fill_density = 0.4
; nozzle_diameter = 0.35
; filament_diameter = 3
; extrusion_multiplier = 1
; perimeter_speed = 30
; infill_speed = 60
; travel_speed = 130
; scale = 1
; single wall width = 0.37mm

M107
M104 S225 ; set temperature
M106 ; turn on fan
G28 ; home all axes
M104 S225 ; turn off temperature
M190 S80 ; set bed temperature
M109 S225 ; wait for temperature to be reached
G90 ; use absolute coordinates
G21 ; set units to millimeters
G92 E0 ; reset extrusion distance
M82 ; use absolute distances for extrusion
G1 Z0.250 F7800.000
G1 X57.962 Y74.437
G1 F1800.000 E1.00000
G1 X58.562 Y73.837 F540.000 E1.01092
G1 X58.882 Y73.557 E1.01639
G1 X59.692 Y72.957 E1.02935
G1 X60.042 Y72.737 E1.03467
G1 X61.012 Y72.247 E1.04865
G1 X61.402 Y72.087 E1.05408
G1 X62.272 Y71.797 E1.06587
G1 X62.972 Y71.627 E1.07514
G1 X63.592 Y71.537 E1.08320
G1 X64.212 Y71.507 E1.09119
G1 X136.072 Y71.517 E2.01565
G1 X136.682 Y71.567 E2.02353
G1 X137.692 Y71.787 E2.03683
G1 X138.652 Y72.107 E2.04984
G1 X139.032 Y72.267 E2.05515
G1 X139.882 Y72.697 E2.06740
G1 X140.242 Y72.917 E2.07283
G1 X141.112 Y73.557 E2.08672
G1 X141.432 Y73.837 E2.09220
G1 X142.102 Y74.527 E2.10457
G1 X142.372 Y74.847 E2.10995
G1 X142.902 Y75.567 E2.12146
G1 X143.122 Y75.917 E2.12677
G1 X143.562 Y76.757 E2.13897
G1 X143.732 Y77.147 E2.14445
G1 X144.072 Y78.147 E2.15804
G1 X144.242 Y78.847 E2.16730
G1 X144.332 Y79.467 E2.17536
G1 X144.352 Y120.197 E2.69935
G1 X144.302 Y120.807 E2.70722
G1 X144.022 Y122.037 E2.72345
G1 X143.802 Y122.697 E2.73240
G1 X143.542 Y123.287 E2.74069
G1 X143.162 Y124.007 E2.75117
G1 X142.942 Y124.367 E2.75659
G1 X142.372 Y125.147 E2.76902
G1 X142.102 Y125.467 E2.77441
G1 X141.342 Y126.227 E2.78824
G1 X141.022 Y126.497 E2.79362
G1 X140.242 Y127.067 E2.80605
G1 X139.882 Y127.287 E2.81148
G1 X139.162 Y127.667 E2.82195
G1 X138.572 Y127.927 E2.83025
G1 X137.912 Y128.147 E2.83920
G1 X136.682 Y128.427 E2.85543
G1 X135.772 Y128.487 E2.86716
G1 X63.902 Y128.477 E3.79175
G1 X63.592 Y128.457 E3.79575
G1 X62.972 Y128.367 E3.80381
G1 X62.272 Y128.197 E3.81308
G1 X61.272 Y127.857 E3.82667
G1 X60.882 Y127.687 E3.83214
G1 X60.042 Y127.247 E3.84434
G1 X59.692 Y127.027 E3.84966
G1 X58.972 Y126.497 E3.86116
G1 X58.652 Y126.227 E3.86654
G1 X57.962 Y125.557 E3.87892
G1 X57.682 Y125.237 E3.88439
G1 X57.042 Y124.367 E3.89828
G1 X56.822 Y124.007 E3.90371
G1 X56.392 Y123.157 E3.91596
G1 X56.232 Y122.777 E3.92127
G1 X55.912 Y121.817 E3.93429
G1 X55.692 Y120.807 E3.94758
G1 X55.632 Y119.897 E3.95932
G1 X55.642 Y79.797 E4.47520
G1 X55.692 Y79.187 E4.48307
G1 X55.912 Y78.177 E4.49637
G1 X56.212 Y77.277 E4.50857
G1 X56.372 Y76.887 E4.51400
G1 X56.862 Y75.917 E4.52798
G1 X57.082 Y75.567 E4.53330
G1 X57.682 Y74.757 E4.54626
G1 X57.926 Y74.479 E4.55102
G1 F1800.000 E3.55102
G92 E0
G1 X135.734 Y121.770 F7800.000
G1 F1800.000 E1.00000
G1 X64.266 Y121.770 F540.000 E1.91943
G1 X63.932 Y121.686 E1.92386
G1 X63.596 Y121.545 E1.92855
G1 X63.286 Y121.353 E1.93324
G1 X63.009 Y121.116 E1.93793
G1 X62.772 Y120.839 E1.94262
G1 X62.580 Y120.529 E1.94731
G1 X62.439 Y120.193 E1.95199
G1 X62.355 Y119.858 E1.95645
G1 X62.355 Y80.142 E2.46738
G1 X62.439 Y79.807 E2.47183
G1 X62.580 Y79.471 E2.47652
G1 X62.772 Y79.161 E2.48120
G1 X63.009 Y78.884 E2.48589
G1 X63.286 Y78.647 E2.49058
G1 X63.596 Y78.455 E2.49527
G1 X63.932 Y78.314 E2.49996
G1 X64.266 Y78.230 E2.50439
G1 X135.734 Y78.230 E3.42382
G1 X136.068 Y78.314 E3.42825
G1 X136.404 Y78.455 E3.43294
G1 X136.714 Y78.647 E3.43763
G1 X136.991 Y78.884 E3.44232
G1 X137.228 Y79.161 E3.44701
G1 X137.420 Y79.471 E3.45169
G1 X137.561 Y79.807 E3.45638
G1 X137.645 Y80.141 E3.46081
G1 X137.645 Y118.366 E3.95257
G1 X137.645 Y118.371 E3.95264
G1 X137.645 Y119.858 E3.97176
G1 X137.561 Y120.193 E3.97622
G1 X137.420 Y120.529 E3.98090
G1 X137.228 Y120.839 E3.98559
G1 X136.991 Y121.116 E3.99028
G1 X136.714 Y121.353 E3.99497
G1 X136.404 Y121.545 E3.99966
G1 X136.068 Y121.686 E4.00435
G1 X135.788 Y121.756 E4.00807
G1 X135.779 Y122.130 F7800.000
G1 X64.221 Y122.130 F540.000 E4.92864
G1 X63.817 Y122.029 E4.93400
G1 X63.430 Y121.866 E4.93941
G1 X63.072 Y121.645 E4.94481
G1 X62.753 Y121.372 E4.95022
G1 X62.480 Y121.053 E4.95563
G1 X62.259 Y120.695 E4.96104
G1 X62.095 Y120.308 E4.96644
G1 X61.994 Y119.902 E4.97182
G1 X61.994 Y80.098 E5.48389
G1 X62.095 Y79.692 E5.48927
G1 X62.259 Y79.305 E5.49468
G1 X62.480 Y78.947 E5.50009
G1 X62.753 Y78.628 E5.50550
G1 X63.072 Y78.355 E5.51090
G1 X63.430 Y78.134 E5.51631
G1 X63.817 Y77.970 E5.52172
G1 X64.221 Y77.870 E5.52708
G1 X135.779 Y77.870 E6.44765
G1 X136.183 Y77.970 E6.45301
G1 X136.570 Y78.134 E6.45841
G1 X136.928 Y78.355 E6.46382
G1 X137.247 Y78.628 E6.46923
G1 X137.520 Y78.947 E6.47464
G1 X137.741 Y79.305 E6.48004
G1 X137.905 Y79.692 E6.48545
G1 X138.005 Y80.096 E6.49081
G1 X138.005 Y118.350 E6.98293
G1 X138.006 Y118.354 E6.98299
G1 X138.006 Y119.902 E7.00290
G1 X137.905 Y120.308 E7.00828
G1 X137.741 Y120.695 E7.01369
G1 X137.520 Y121.053 E7.01910
G1 X137.247 Y121.372 E7.02450
G1 X136.928 Y121.645 E7.02991
G1 X136.570 Y121.866 E7.03532
G1 X136.183 Y122.030 E7.04073
G1 X135.832 Y122.117 E7.04537
G1 X135.837 Y121.409 F7800.000
G1 X64.163 Y121.409 F1080.000 E7.96745
G1 X63.335 Y121.046 E7.97909
G1 X136.665 Y121.046 E8.92247
G1 X137.034 Y120.683 E8.92913
G1 X62.966 Y120.683 E9.88200
G1 X62.736 Y120.321 E9.88752
G1 X137.263 Y120.321 E10.84629
G1 X137.396 Y119.958 E10.85126
G1 X62.604 Y119.958 E11.81344
G1 X62.568 Y119.595 E11.81814
G1 X137.431 Y119.595 E12.78123
G1 X137.431 Y119.232 E12.78590
G1 X62.568 Y119.232 E13.74900
G1 X62.568 Y118.869 E13.75367
G1 X137.431 Y118.869 E14.71676
G1 X137.431 Y118.506 E14.72143
G1 X62.568 Y118.506 E15.68452
G1 X62.568 Y118.143 E15.68919
G1 X137.431 Y118.143 E16.65229
G1 X137.431 Y117.781 E16.65695
G1 X62.568 Y117.781 E17.62004
G1 X62.568 Y117.418 E17.62471
G1 X137.431 Y117.418 E18.58781
G1 X137.431 Y117.055 E18.59248
G1 X62.568 Y117.055 E19.55557
G1 X62.568 Y116.692 E19.56024
G1 X137.431 Y116.692 E20.52333
G1 X137.431 Y116.329 E20.52800
G1 X62.568 Y116.329 E21.49110
G1 X62.568 Y115.966 E21.49577
G1 X137.431 Y115.966 E22.45886
G1 X137.431 Y115.603 E22.46353
G1 X62.568 Y115.603 E23.42663
G1 X62.568 Y115.240 E23.43130
G1 X137.431 Y115.240 E24.39439
G1 X137.431 Y114.878 E24.39905
G1 X62.568 Y114.878 E25.36214
G1 X62.568 Y114.515 E25.36681
G1 X137.431 Y114.515 E26.32991
G1 X137.431 Y114.152 E26.33458
G1 X62.568 Y114.152 E27.29767
G1 X62.568 Y113.789 E27.30234
G1 X137.431 Y113.789 E28.26544
G1 X137.431 Y113.426 E28.27011
G1 X62.568 Y113.426 E29.23320
G1 X62.568 Y113.063 E29.23787
G1 X137.431 Y113.063 E30.20097
G1 X137.431 Y112.700 E30.20564
G1 X62.568 Y112.700 E31.16873
G1 X62.568 Y112.338 E31.17339
G1 X137.431 Y112.338 E32.13648
G1 X137.431 Y111.975 E32.14115
G1 X62.568 Y111.975 E33.10425
G1 X62.568 Y111.612 E33.10892
G1 X137.431 Y111.612 E34.07201
G1 X137.431 Y111.249 E34.07668
G1 X62.568 Y111.249 E35.03978
G1 X62.568 Y110.886 E35.04445
G1 X137.431 Y110.886 E36.00754
G1 X137.431 Y110.523 E36.01221
G1 X62.568 Y110.523 E36.97530
G1 X62.568 Y110.160 E36.97997
G1 X137.431 Y110.160 E37.94307
G1 X137.431 Y109.797 E37.94774
G1 X62.568 Y109.797 E38.91083
G1 X62.568 Y109.435 E38.91549
G1 X137.431 Y109.435 E39.87859
G1 X137.431 Y109.072 E39.88326
G1 X62.568 Y109.072 E40.84635
G1 X62.568 Y108.709 E40.85102
G1 X137.431 Y108.709 E41.81411
G1 X137.431 Y108.346 E41.81878
G1 X62.568 Y108.346 E42.78188
G1 X62.568 Y107.983 E42.78655
G1 X137.431 Y107.983 E43.74964
G1 X137.431 Y107.620 E43.75431
G1 X62.568 Y107.620 E44.71741
G1 X62.568 Y107.257 E44.72208
G1 X137.431 Y107.257 E45.68517
G1 X137.431 Y106.895 E45.68983
G1 X62.568 Y106.895 E46.65292
G1 X62.568 Y106.532 E46.65759
G1 X137.431 Y106.532 E47.62069
G1 X137.431 Y106.169 E47.62536
G1 X62.568 Y106.169 E48.58845
G1 X62.568 Y105.806 E48.59312
G1 X137.431 Y105.806 E49.55622
G1 X137.431 Y105.443 E49.56089
G1 X62.568 Y105.443 E50.52398
G1 X62.568 Y105.080 E50.52865
G1 X137.431 Y105.080 E51.49175
G1 X137.431 Y104.717 E51.49642
G1 X62.568 Y104.717 E52.45951
G1 X62.568 Y104.354 E52.46418
G1 X137.431 Y104.354 E53.42728
G1 X137.431 Y103.992 E53.43193
G1 X62.568 Y103.992 E54.39503
G1 X62.568 Y103.629 E54.39970
G1 X137.431 Y103.629 E55.36279
G1 X137.431 Y103.266 E55.36746
G1 X62.568 Y103.266 E56.33056
G1 X62.568 Y102.903 E56.33523
G1 X137.431 Y102.903 E57.29832
G1 X137.431 Y102.540 E57.30299
G1 X62.568 Y102.540 E58.26608
G1 X62.568 Y102.177 E58.27075
G1 X137.431 Y102.177 E59.23385
G1 X137.431 Y101.814 E59.23852
G1 X62.568 Y101.814 E60.20161
G1 X62.568 Y101.452 E60.20627
G1 X137.431 Y101.452 E61.16937
G1 X137.431 Y101.089 E61.17404
G1 X62.568 Y101.089 E62.13713
G1 X62.568 Y100.726 E62.14180
G1 X137.431 Y100.726 E63.10489
G1 X137.431 Y100.363 E63.10956
G1 X62.568 Y100.363 E64.07266
G1 X62.568 Y100.000 E64.07733
G1 X137.431 Y100.000 E65.04042
G1 X137.431 Y99.637 E65.04509
G1 X62.568 Y99.637 E66.00819
G1 X62.568 Y99.274 E66.01286
G1 X137.431 Y99.274 E66.97595
G1 X137.431 Y98.911 E66.98062
G1 X62.568 Y98.911 E67.94372
G1 X62.568 Y98.549 E67.94837
G1 X137.431 Y98.549 E68.91147
G1 X137.431 Y98.186 E68.91614
G1 X62.568 Y98.186 E69.87923
G1 X62.568 Y97.823 E69.88390
G1 X137.431 Y97.823 E70.84700
G1 X137.431 Y97.460 E70.85167
G1 X62.568 Y97.460 E71.81476
G1 X62.568 Y97.097 E71.81943
G1 X137.431 Y97.097 E72.78253
G1 X137.431 Y96.734 E72.78720
G1 X62.568 Y96.734 E73.75029
G1 X62.568 Y96.371 E73.75496
G1 X137.431 Y96.371 E74.71805
G1 X137.431 Y96.009 E74.72271
G1 X62.568 Y96.009 E75.68581
G1 X62.568 Y95.646 E75.69048
G1 X137.431 Y95.646 E76.65357
G1 X137.431 Y95.283 E76.65824
G1 X62.568 Y95.283 E77.62134
G1 X62.568 Y94.920 E77.62601
G1 X137.431 Y94.920 E78.58910
G1 X137.431 Y94.557 E78.59377
G1 X62.568 Y94.557 E79.55686
G1 X62.568 Y94.194 E79.56153
G1 X137.431 Y94.194 E80.52463
G1 X137.431 Y93.831 E80.52930
G1 X62.568 Y93.831 E81.49239
G1 X62.568 Y93.468 E81.49706
G1 X137.431 Y93.468 E82.46016
G1 X137.431 Y93.106 E82.46481
G1 X62.568 Y93.106 E83.42791
G1 X62.568 Y92.743 E83.43258
G1 X137.431 Y92.743 E84.39567
G1 X137.431 Y92.380 E84.40034
G1 X62.568 Y92.380 E85.36344
G1 X62.568 Y92.017 E85.36811
G1 X137.431 Y92.017 E86.33120
G1 X137.431 Y91.654 E86.33587
G1 X62.568 Y91.654 E87.29897
G1 X62.568 Y91.291 E87.30364
G1 X137.431 Y91.291 E88.26673
G1 X137.431 Y90.928 E88.27140
G1 X62.568 Y90.928 E89.23450
G1 X62.568 Y90.566 E89.23915
G1 X137.431 Y90.566 E90.20225
G1 X137.431 Y90.203 E90.20692
G1 X62.568 Y90.203 E91.17001
G1 X62.568 Y89.840 E91.17468
G1 X137.431 Y89.840 E92.13778
G1 X137.431 Y89.477 E92.14245
G1 X62.568 Y89.477 E93.10554
G1 X62.568 Y89.114 E93.11021
G1 X137.431 Y89.114 E94.07331
G1 X137.431 Y88.751 E94.07798
G1 X62.568 Y88.751 E95.04107
G1 X62.568 Y88.388 E95.04574
G1 X137.431 Y88.388 E96.00883
G1 X137.431 Y88.025 E96.01350
G1 X62.568 Y88.025 E96.97660
G1 X62.568 Y87.663 E96.98126
G1 X137.431 Y87.663 E97.94435
G1 X137.431 Y87.300 E97.94902
G1 X62.568 Y87.300 E98.91212
G1 X62.568 Y86.937 E98.91679
G1 X137.431 Y86.937 E99.87988
G1 X137.431 Y86.574 E99.88455
G1 X62.568 Y86.574 E100.84764
G1 X62.568 Y86.211 E100.85231
G1 X137.431 Y86.211 E101.81541
G1 X137.431 Y85.848 E101.82008
G1 X62.568 Y85.848 E102.78317
G1 X62.568 Y85.485 E102.78784
G1 X137.431 Y85.485 E103.75094
G1 X137.431 Y85.123 E103.75559
G1 X62.568 Y85.123 E104.71869
G1 X62.568 Y84.760 E104.72336
G1 X137.431 Y84.760 E105.68645
G1 X137.431 Y84.397 E105.69112
G1 X62.568 Y84.397 E106.65422
G1 X62.568 Y84.034 E106.65889
G1 X137.431 Y84.034 E107.62198
G1 X137.431 Y83.671 E107.62665
G1 X62.568 Y83.671 E108.58975
G1 X62.568 Y83.308 E108.59442
G1 X137.431 Y83.308 E109.55751
G1 X137.431 Y82.945 E109.56218
G1 X62.568 Y82.945 E110.52528
G1 X62.568 Y82.582 E110.52995
G1 X137.431 Y82.582 E111.49304
G1 X137.431 Y82.220 E111.49770
G1 X62.568 Y82.220 E112.46079
G1 X62.568 Y81.857 E112.46546
G1 X137.431 Y81.857 E113.42856
G1 X137.431 Y81.494 E113.43323
G1 X62.568 Y81.494 E114.39632
G1 X62.568 Y81.131 E114.40099
G1 X137.431 Y81.131 E115.36409
G1 X137.431 Y80.768 E115.36876
G1 X62.568 Y80.768 E116.33185
G1 X62.568 Y80.405 E116.33652
G1 X137.431 Y80.405 E117.29961
G1 X137.396 Y80.042 E117.30431
G1 X62.604 Y80.042 E118.26649
G1 X62.737 Y79.680 E118.27145
G1 X137.263 Y79.680 E119.23022
G1 X137.034 Y79.317 E119.23574
G1 X62.966 Y79.317 E120.18861
G1 X63.335 Y78.954 E120.19527
G1 X136.665 Y78.954 E121.13865
G1 X135.837 Y78.591 E121.15028
G1 X64.163 Y78.591 E122.07236
M106 S89
G1 F1800.000 E121.07236
G92 E0
G1 Z0.500 F7800.000
G1 X135.734 Y121.770
G1 F1800.000 E1.00000
G1 X64.266 Y121.770 F1800.000 E1.91943
G1 X63.932 Y121.686 E1.92386
G1 X63.596 Y121.545 E1.92855
G1 X63.286 Y121.353 E1.93324
G1 X63.009 Y121.116 E1.93793
G1 X62.772 Y120.839 E1.94262
G1 X62.478 Y120.363 E1.94981
G1 X62.496 Y120.330 E1.95030
G1 X62.445 Y120.209 E1.95200
G1 X62.445 Y120.209 E1.95200
G1 X62.439 Y120.193 E1.95221
G1 X62.354 Y119.854 E1.95671
G1 X62.354 Y80.146 E2.46755
G1 X62.435 Y79.823 E2.47183
G1 X62.435 Y79.823 E2.47183
G1 X62.439 Y79.807 E2.47205
G1 X62.580 Y79.471 E2.47674
G1 X62.772 Y79.161 E2.48143
G1 X63.009 Y78.884 E2.48611
G1 X63.286 Y78.647 E2.49080
G1 X63.596 Y78.455 E2.49549
G1 X63.932 Y78.314 E2.50018
G1 X63.948 Y78.310 E2.50040
G1 X63.948 Y78.310 E2.50040
G1 X64.266 Y78.230 E2.50461
G1 X135.734 Y78.230 E3.42404
G1 X136.068 Y78.314 E3.42847
G1 X136.404 Y78.455 E3.43316
G1 X136.714 Y78.647 E3.43785
G1 X136.991 Y78.884 E3.44254
G1 X137.228 Y79.161 E3.44723
G1 X137.411 Y79.457 E3.45170
G1 X137.411 Y79.457 E3.45170
G1 X137.420 Y79.471 E3.45192
G1 X137.561 Y79.807 E3.45660
G1 X137.645 Y80.141 E3.46103
G1 X137.645 Y115.230 E3.91245
G1 X137.646 Y115.244 E3.91264
G1 X137.646 Y119.854 E3.97194
G1 X137.561 Y120.193 E3.97644
G1 X137.532 Y120.263 E3.97742
G1 X137.532 Y120.263 E3.97742
G1 X137.420 Y120.529 E3.98113
G1 X137.228 Y120.839 E3.98582
G1 X137.110 Y120.977 E3.98816
G1 X137.110 Y120.977 E3.98816
G1 X136.991 Y121.116 E3.99051
G1 X136.714 Y121.353 E3.99520
G1 X136.404 Y121.545 E3.99988
G1 X136.068 Y121.686 E4.00457
G1 X135.788 Y121.756 E4.00829
G1 X135.779 Y122.130 F7800.000
G1 X64.410 Y122.130 F1800.000 E4.92644
G1 X64.410 Y122.177 E4.92704
G1 X63.817 Y122.030 E4.93490
G1 X63.664 Y121.965 E4.93705
G1 X63.664 Y121.965 E4.93705
G1 X63.430 Y121.866 E4.94031
G1 X63.072 Y121.645 E4.94572
G1 X62.753 Y121.372 E4.95112
G1 X62.480 Y121.053 E4.95653
G1 X62.259 Y120.695 E4.96194
G1 X62.095 Y120.308 E4.96735
G1 X61.993 Y119.898 E4.97277
G1 X61.993 Y80.102 E5.48475
G1 X62.095 Y79.692 E5.49018
G1 X62.241 Y79.346 E5.49501
G1 X62.241 Y79.346 E5.49501
G1 X62.259 Y79.305 E5.49559
G1 X62.480 Y78.947 E5.50099
G1 X62.753 Y78.628 E5.50640
G1 X63.072 Y78.355 E5.51181
G1 X63.430 Y78.134 E5.51722
G1 X63.471 Y78.116 E5.51779
G1 X63.471 Y78.116 E5.51779
G1 X63.817 Y77.970 E5.52262
G1 X64.221 Y77.870 E5.52798
G1 X135.779 Y77.870 E6.44855
G1 X135.818 Y77.880 E6.44908
G1 X135.818 Y77.880 E6.44908
G1 X136.183 Y77.970 E6.45391
G1 X136.570 Y78.134 E6.45932
G1 X136.608 Y78.157 E6.45989
G1 X136.608 Y78.157 E6.45989
G1 X136.928 Y78.355 E6.46473
G1 X137.247 Y78.628 E6.47013
G1 X137.520 Y78.947 E6.47554
G1 X137.741 Y79.305 E6.48095
G1 X137.905 Y79.692 E6.48636
G1 X138.005 Y80.096 E6.49171
G1 X138.005 Y115.214 E6.94349
G1 X138.007 Y115.228 E6.94368
G1 X138.007 Y119.898 E7.00376
G1 X137.905 Y120.308 E7.00919
G1 X137.741 Y120.695 E7.01460
G1 X137.520 Y121.053 E7.02000
G1 X137.276 Y121.338 E7.02484
G1 X137.276 Y121.338 E7.02484
G1 X137.247 Y121.372 E7.02541
G1 X136.928 Y121.645 E7.03082
G1 X136.570 Y121.866 E7.03623
G1 X136.183 Y122.030 E7.04163
G1 X135.832 Y122.117 E7.04628
G1 F1800.000 E6.04628
G92 E0
G1 X137.285 Y116.588 F7800.000
G1 F1800.000 E1.00000
G1 X137.285 Y119.957 F3600.000 E1.04334
G1 X136.923 Y120.788 E1.05500
G1 X136.923 Y79.212 E1.58987
G1 X136.561 Y78.844 E1.59651
G1 X136.561 Y121.157 E2.14086
G1 X136.199 Y121.387 E2.14638
G1 X136.199 Y78.613 E2.69666
G1 X135.837 Y78.481 E2.70162
G1 X135.837 Y121.520 E3.25531
G1 X135.476 Y121.556 E3.25997
G1 X135.476 Y78.444 E3.81460
G1 X135.114 Y78.444 E3.81926
G1 X135.114 Y121.556 E4.37389
