; generated by Slic3r 0.9.8-dev on 2012-12-29 at 18:08:32

; layer_height = 0.4
; perimeters = 3
; top_solid_layers = 3
; bottom_solid_layers = 3
; fill_density = 0.4
; perimeter_speed = 30
; infill_speed = 60
; travel_speed = 130
; scale = 1
; nozzle_diameter = 0.5
; filament_diameter = 3
; extrusion_multiplier = 1
; perimeters extrusion width = 0.53mm
; infill extrusion width = 0.53mm
; first layer extrusion width = 0.80mm

M107 ; disable fan
M190 S60 ; wait for bed temperature to be reached
M104 S185 ; set temperature
M104 S185 ; set extruder temperature
G28 ; home all axes
M109 S185 ; wait for temperature to be reached
G90 ; use absolute coordinates
G21 ; set units to millimeters
G92 E0 ; reset extrusion distance
M82 ; use absolute distances for extrusion
G1 F1800.000 E-1.00000 ; retract
G92 E0 ; reset extrusion distance
G1 Z0.400 F7800.000 ; move to next layer (0)
G1 X134.893 Y120.740 ; move to first skirt point
G1 F1800.000 E1.00000 ; compensate retraction
G1 X65.093 Y120.740 F540.000 E3.90560 ; skirt
G1 X64.183 Y120.680 E3.94357 ; skirt
G1 X63.433 Y120.580 E3.97506 ; skirt
G1 X63.073 Y120.510 E3.99033 ; skirt
G1 X62.123 Y120.250 E4.03133 ; skirt
G1 X61.783 Y120.130 E4.04634 ; skirt
G1 X61.083 Y119.840 E4.07788 ; skirt
G1 X60.753 Y119.680 E4.09315 ; skirt
G1 X59.953 Y119.220 E4.13156 ; skirt
G1 X59.653 Y119.020 E4.14657 ; skirt
G1 X58.923 Y118.450 E4.18512 ; skirt
G1 X58.653 Y118.210 E4.20016 ; skirt
G1 X58.093 Y117.650 E4.23313 ; skirt
G1 X57.853 Y117.380 E4.24817 ; skirt
G1 X57.283 Y116.650 E4.28672 ; skirt
G1 X57.083 Y116.350 E4.30173 ; skirt
G1 X56.623 Y115.550 E4.34015 ; skirt
G1 X56.463 Y115.220 E4.35541 ; skirt
G1 X56.173 Y114.520 E4.38695 ; skirt
G1 X56.053 Y114.180 E4.40196 ; skirt
G1 X55.793 Y113.230 E4.44296 ; skirt
G1 X55.723 Y112.870 E4.45823 ; skirt
G1 X55.603 Y111.940 E4.49726 ; skirt
G1 X55.573 Y111.210 E4.52768 ; skirt
G1 X55.573 Y66.780 E6.37719 ; skirt
G1 X55.603 Y66.050 E6.40760 ; skirt
G1 X55.723 Y65.120 E6.44664 ; skirt
G1 X55.793 Y64.760 E6.46190 ; skirt
G1 X56.053 Y63.810 E6.50291 ; skirt
G1 X56.173 Y63.470 E6.51791 ; skirt
G1 X56.463 Y62.770 E6.54946 ; skirt
G1 X56.623 Y62.440 E6.56472 ; skirt
G1 X57.083 Y61.640 E6.60314 ; skirt
G1 X57.283 Y61.340 E6.61815 ; skirt
G1 X57.853 Y60.610 E6.65670 ; skirt
G1 X58.093 Y60.340 E6.67174 ; skirt
G1 X58.653 Y59.780 E6.70471 ; skirt
G1 X58.923 Y59.540 E6.71974 ; skirt
G1 X59.653 Y58.970 E6.75830 ; skirt
G1 X59.953 Y58.770 E6.77331 ; skirt
G1 X60.753 Y58.310 E6.81172 ; skirt
G1 X61.083 Y58.150 E6.82699 ; skirt
G1 X61.783 Y57.860 E6.85853 ; skirt
G1 X62.123 Y57.740 E6.87354 ; skirt
G1 X63.073 Y57.480 E6.91454 ; skirt
G1 X63.433 Y57.410 E6.92980 ; skirt
G1 X64.363 Y57.290 E6.96884 ; skirt
G1 X65.093 Y57.260 E6.99925 ; skirt
G1 X135.243 Y57.270 E9.91943 ; skirt
G1 X135.623 Y57.290 E9.93527 ; skirt
G1 X136.593 Y57.420 E9.97601 ; skirt
G1 X136.943 Y57.490 E9.99086 ; skirt
G1 X137.803 Y57.720 E10.02792 ; skirt
G1 X138.153 Y57.840 E10.04332 ; skirt
G1 X138.983 Y58.190 E10.08082 ; skirt
G1 X139.303 Y58.350 E10.09571 ; skirt
G1 X140.033 Y58.770 E10.13077 ; skirt
G1 X140.333 Y58.970 E10.14578 ; skirt
G1 X140.973 Y59.460 E10.17934 ; skirt
G1 X141.253 Y59.700 E10.19469 ; skirt
G1 X141.903 Y60.340 E10.23266 ; skirt
G1 X142.143 Y60.610 E10.24770 ; skirt
G1 X142.713 Y61.340 E10.28625 ; skirt
G1 X142.913 Y61.640 E10.30126 ; skirt
G1 X143.373 Y62.440 E10.33968 ; skirt
G1 X143.533 Y62.770 E10.35494 ; skirt
G1 X143.883 Y63.640 E10.39398 ; skirt
G1 X143.993 Y63.980 E10.40885 ; skirt
G1 X144.243 Y64.950 E10.45055 ; skirt
G1 X144.393 Y66.050 E10.49677 ; skirt
G1 X144.423 Y66.780 E10.52718 ; skirt
G1 X144.423 Y111.210 E12.37669 ; skirt
G1 X144.393 Y111.940 E12.40711 ; skirt
G1 X144.243 Y113.040 E12.45332 ; skirt
G1 X143.993 Y114.010 E12.49502 ; skirt
G1 X143.883 Y114.350 E12.50989 ; skirt
G1 X143.533 Y115.220 E12.54893 ; skirt
G1 X143.373 Y115.550 E12.56420 ; skirt
G1 X142.913 Y116.350 E12.60261 ; skirt
G1 X142.713 Y116.650 E12.61762 ; skirt
G1 X142.143 Y117.380 E12.65618 ; skirt
G1 X141.903 Y117.650 E12.67121 ; skirt
G1 X141.253 Y118.290 E12.70919 ; skirt
G1 X140.973 Y118.530 E12.72454 ; skirt
G1 X140.333 Y119.020 E12.75809 ; skirt
G1 X140.033 Y119.220 E12.77310 ; skirt
G1 X139.303 Y119.640 E12.80816 ; skirt
G1 X138.983 Y119.800 E12.82305 ; skirt
G1 X138.153 Y120.150 E12.86055 ; skirt
G1 X137.803 Y120.270 E12.87595 ; skirt
G1 X136.943 Y120.500 E12.91301 ; skirt
G1 X136.593 Y120.570 E12.92787 ; skirt
G1 X135.803 Y120.680 E12.96107 ; skirt
G1 X135.003 Y120.734 E12.99444 ; skirt
G1 X134.893 Y120.740 E12.99903 ; skirt
G1 F1800.000 E11.99903 ; retract
G92 E0 ; reset extrusion distance
G1 X64.751 Y112.480 F7800.000 ; move to first perimeter point
G1 F1800.000 E1.00000 ; compensate retraction
G1 X64.438 Y112.351 F540.000 E1.01412 ; perimeter
G1 X64.169 Y112.144 E1.02825 ; perimeter
G1 X64.057 Y112.016 E1.03533 ; perimeter
G1 X63.962 Y111.875 E1.04240 ; perimeter
G1 X63.832 Y111.561 E1.05653 ; perimeter
G1 X63.799 Y111.395 E1.06360 ; perimeter
G1 X63.784 Y111.164 E1.07324 ; perimeter
G1 X63.784 Y66.836 E2.91848 ; perimeter
G1 X63.799 Y66.605 E2.92811 ; perimeter
G1 X63.887 Y66.278 E2.94224 ; perimeter
G1 X64.057 Y65.984 E2.95636 ; perimeter
G1 X64.296 Y65.744 E2.97049 ; perimeter
G1 X64.438 Y65.649 E2.97757 ; perimeter
G1 X64.751 Y65.520 E2.99169 ; perimeter
G1 X64.918 Y65.486 E2.99877 ; perimeter
G1 X65.149 Y65.471 E3.00840 ; perimeter
G1 X134.851 Y65.471 E5.90993 ; perimeter
G1 X135.082 Y65.486 E5.91956 ; perimeter
G1 X135.249 Y65.520 E5.92664 ; perimeter
G1 X135.562 Y65.649 E5.94076 ; perimeter
G1 X135.704 Y65.744 E5.94784 ; perimeter
G1 X135.943 Y65.984 E5.96196 ; perimeter
G1 X136.038 Y66.125 E5.96904 ; perimeter
G1 X136.168 Y66.439 E5.98316 ; perimeter
G1 X136.201 Y66.605 E5.99024 ; perimeter
G1 X136.216 Y66.836 E5.99987 ; perimeter
G1 X136.216 Y111.164 E7.84512 ; perimeter
G1 X136.201 Y111.395 E7.85475 ; perimeter
G1 X136.113 Y111.722 E7.86888 ; perimeter
G1 X135.943 Y112.016 E7.88300 ; perimeter
G1 X135.704 Y112.256 E7.89712 ; perimeter
G1 X135.562 Y112.351 E7.90420 ; perimeter
G1 X135.249 Y112.480 E7.91833 ; perimeter
G1 X135.082 Y112.514 E7.92540 ; perimeter
G1 X134.851 Y112.529 E7.93504 ; perimeter
G1 X65.149 Y112.529 E10.83656 ; perimeter
G1 X64.860 Y112.502 E10.84866 ; perimeter
G1 X64.751 Y112.480 E10.85326 ; perimeter
G1 X64.561 Y113.193 F7800.000 ; move to first perimeter point
G1 X64.308 Y113.107 F540.000 E10.86435 ; perimeter
G1 X64.069 Y112.989 E10.87544 ; perimeter
G1 X63.848 Y112.841 E10.88653 ; perimeter
G1 X63.647 Y112.665 E10.89762 ; perimeter
G1 X63.472 Y112.465 E10.90871 ; perimeter
G1 X63.324 Y112.243 E10.91980 ; perimeter
G1 X63.206 Y112.005 E10.93090 ; perimeter
G1 X63.120 Y111.752 E10.94199 ; perimeter
G1 X63.068 Y111.491 E10.95308 ; perimeter
G1 X63.048 Y111.188 E10.96572 ; perimeter
G1 X63.048 Y66.812 E12.81297 ; perimeter
G1 X63.068 Y66.509 E12.82561 ; perimeter
G1 X63.120 Y66.248 E12.83670 ; perimeter
G1 X63.206 Y65.995 E12.84779 ; perimeter
G1 X63.324 Y65.757 E12.85889 ; perimeter
G1 X63.472 Y65.535 E12.86998 ; perimeter
G1 X63.647 Y65.335 E12.88107 ; perimeter
G1 X63.848 Y65.159 E12.89216 ; perimeter
G1 X64.069 Y65.011 E12.90325 ; perimeter
G1 X64.308 Y64.893 E12.91434 ; perimeter
G1 X64.561 Y64.807 E12.92544 ; perimeter
G1 X64.822 Y64.755 E12.93653 ; perimeter
G1 X65.125 Y64.736 E12.94917 ; perimeter
G1 X134.875 Y64.736 E15.85270 ; perimeter
G1 X135.178 Y64.755 E15.86534 ; perimeter
G1 X135.439 Y64.807 E15.87643 ; perimeter
G1 X135.692 Y64.893 E15.88753 ; perimeter
G1 X135.931 Y65.011 E15.89862 ; perimeter
G1 X136.152 Y65.159 E15.90971 ; perimeter
G1 X136.353 Y65.335 E15.92080 ; perimeter
G1 X136.528 Y65.535 E15.93189 ; perimeter
G1 X136.676 Y65.757 E15.94298 ; perimeter
G1 X136.794 Y65.996 E15.95408 ; perimeter
G1 X136.880 Y66.248 E15.96517 ; perimeter
G1 X136.932 Y66.509 E15.97626 ; perimeter
G1 X136.952 Y66.812 E15.98890 ; perimeter
G1 X136.952 Y111.188 E17.83615 ; perimeter
G1 X136.932 Y111.491 E17.84879 ; perimeter
G1 X136.880 Y111.752 E17.85988 ; perimeter
G1 X136.794 Y112.005 E17.87097 ; perimeter
G1 X136.676 Y112.243 E17.88207 ; perimeter
G1 X136.528 Y112.465 E17.89316 ; perimeter
G1 X136.353 Y112.665 E17.90425 ; perimeter
G1 X136.152 Y112.841 E17.91534 ; perimeter
G1 X135.931 Y112.989 E17.92643 ; perimeter
G1 X135.692 Y113.107 E17.93752 ; perimeter
G1 X135.440 Y113.193 E17.94861 ; perimeter
G1 X135.178 Y113.245 E17.95971 ; perimeter
G1 X134.875 Y113.264 E17.97235 ; perimeter
G1 X65.125 Y113.264 E20.87588 ; perimeter
G1 X64.822 Y113.245 E20.88852 ; perimeter
G1 X64.669 Y113.214 E20.89502 ; perimeter
G1 X64.561 Y113.193 E20.89961 ; perimeter
G1 X64.370 Y113.905 F7800.000 ; move to first perimeter point
G1 X64.026 Y113.788 F540.000 E20.91472 ; perimeter
G1 X63.701 Y113.627 E20.92982 ; perimeter
G1 X63.399 Y113.426 E20.94493 ; perimeter
G1 X63.126 Y113.187 E20.96004 ; perimeter
G1 X62.887 Y112.914 E20.97514 ; perimeter
G1 X62.685 Y112.612 E20.99025 ; perimeter
G1 X62.525 Y112.287 E21.00535 ; perimeter
G1 X62.408 Y111.943 E21.02046 ; perimeter
G1 X62.337 Y111.587 E21.03556 ; perimeter
G1 X62.313 Y111.212 E21.05122 ; perimeter
G1 X62.313 Y66.788 E22.90047 ; perimeter
G1 X62.337 Y66.413 E22.91612 ; perimeter
G1 X62.408 Y66.057 E22.93123 ; perimeter
G1 X62.525 Y65.713 E22.94633 ; perimeter
G1 X62.685 Y65.388 E22.96144 ; perimeter
G1 X62.887 Y65.086 E22.97654 ; perimeter
G1 X63.126 Y64.813 E22.99165 ; perimeter
G1 X63.399 Y64.574 E23.00676 ; perimeter
G1 X63.701 Y64.373 E23.02186 ; perimeter
G1 X64.026 Y64.212 E23.03697 ; perimeter
G1 X64.370 Y64.095 E23.05207 ; perimeter
G1 X64.726 Y64.025 E23.06718 ; perimeter
G1 X65.101 Y64.000 E23.08283 ; perimeter
G1 X134.899 Y64.000 E25.98837 ; perimeter
G1 X135.274 Y64.025 E26.00402 ; perimeter
G1 X135.630 Y64.095 E26.01912 ; perimeter
G1 X135.974 Y64.212 E26.03423 ; perimeter
G1 X136.299 Y64.373 E26.04933 ; perimeter
G1 X136.601 Y64.574 E26.06444 ; perimeter
G1 X136.874 Y64.813 E26.07955 ; perimeter
G1 X137.113 Y65.086 E26.09465 ; perimeter
G1 X137.315 Y65.388 E26.10976 ; perimeter
G1 X137.475 Y65.713 E26.12486 ; perimeter
G1 X137.592 Y66.057 E26.13997 ; perimeter
G1 X137.663 Y66.413 E26.15507 ; perimeter
G1 X137.687 Y66.788 E26.17072 ; perimeter
G1 X137.687 Y111.212 E28.01998 ; perimeter
G1 X137.663 Y111.587 E28.03563 ; perimeter
G1 X137.592 Y111.943 E28.05074 ; perimeter
G1 X137.475 Y112.287 E28.06584 ; perimeter
G1 X137.315 Y112.612 E28.08095 ; perimeter
G1 X137.113 Y112.914 E28.09605 ; perimeter
G1 X136.874 Y113.187 E28.11116 ; perimeter
G1 X136.601 Y113.426 E28.12627 ; perimeter
G1 X136.299 Y113.627 E28.14137 ; perimeter
G1 X135.974 Y113.788 E28.15648 ; perimeter
G1 X135.630 Y113.905 E28.17158 ; perimeter
G1 X135.274 Y113.975 E28.18669 ; perimeter
G1 X134.899 Y114.000 E28.20234 ; perimeter
G1 X65.101 Y114.000 E31.10787 ; perimeter
G1 X64.726 Y113.975 E31.12353 ; perimeter
G1 X64.478 Y113.926 E31.13404 ; perimeter
G1 X64.370 Y113.905 E31.13863 ; perimeter
G1 X64.195 Y113.190 F7800.000 ; move inwards before travel
G1 X64.924 Y111.857 ; move to first fill point
G1 X64.455 Y111.388 F1080.000 E31.16633 ; fill
G1 X64.285 Y110.174 E31.21753 ; fill
G1 X66.138 Y112.027 E31.32698 ; fill
G1 X67.182 Y112.027 E31.37058 ; fill
G1 X64.285 Y109.131 E31.54169 ; fill
G1 X64.285 Y108.087 E31.58529 ; fill
G1 X68.226 Y112.027 E31.81805 ; fill
G1 X69.270 Y112.027 E31.86165 ; fill
G1 X64.285 Y107.043 E32.15608 ; fill
G1 X64.285 Y105.999 E32.19968 ; fill
G1 X70.314 Y112.027 E32.55576 ; fill
G1 X71.357 Y112.027 E32.59936 ; fill
G1 X64.285 Y104.955 E33.01710 ; fill
G1 X64.285 Y103.911 E33.06070 ; fill
G1 X72.401 Y112.027 E33.54010 ; fill
G1 X73.445 Y112.027 E33.58370 ; fill
G1 X64.285 Y102.868 E34.12476 ; fill
G1 X64.285 Y101.824 E34.16836 ; fill
G1 X74.489 Y112.027 E34.77108 ; fill
G1 X75.533 Y112.027 E34.81467 ; fill
G1 X64.285 Y100.780 E35.47905 ; fill
G1 X64.285 Y99.736 E35.52265 ; fill
G1 X76.577 Y112.027 E36.24868 ; fill
G1 X77.620 Y112.027 E36.29228 ; fill
G1 X64.285 Y98.692 E37.07997 ; fill
G1 X64.285 Y97.648 E37.12357 ; fill
G1 X78.664 Y112.027 E37.97292 ; fill
G1 X79.708 Y112.027 E38.01652 ; fill
G1 X64.285 Y96.605 E38.92752 ; fill
G1 X64.285 Y95.561 E38.97112 ; fill
G1 X80.752 Y112.027 E39.94379 ; fill
G1 X81.796 Y112.027 E39.98739 ; fill
G1 X64.285 Y94.517 E41.02171 ; fill
G1 X64.285 Y93.473 E41.06531 ; fill
G1 X82.840 Y112.027 E42.16129 ; fill
G1 X83.884 Y112.027 E42.20489 ; fill
G1 X64.285 Y92.429 E43.36254 ; fill
G1 X64.285 Y91.385 E43.40613 ; fill
G1 X84.927 Y112.027 E44.62544 ; fill
G1 X85.971 Y112.027 E44.66904 ; fill
G1 X64.285 Y90.342 E45.95000 ; fill
G1 X64.285 Y89.298 E45.99359 ; fill
G1 X87.015 Y112.027 E47.33621 ; fill
G1 X88.059 Y112.027 E47.37981 ; fill
G1 X64.285 Y88.254 E48.78409 ; fill
G1 X64.285 Y87.210 E48.82769 ; fill
G1 X89.103 Y112.027 E50.29362 ; fill
G1 X90.147 Y112.027 E50.33722 ; fill
G1 X64.285 Y86.166 E51.86481 ; fill
G1 X64.285 Y85.122 E51.90841 ; fill
G1 X91.190 Y112.027 E53.49766 ; fill
G1 X92.234 Y112.027 E53.54126 ; fill
G1 X64.285 Y84.079 E55.19217 ; fill
G1 X64.285 Y83.035 E55.23577 ; fill
G1 X93.278 Y112.027 E56.94834 ; fill
G1 X94.322 Y112.027 E56.99194 ; fill
G1 X64.285 Y81.991 E58.76617 ; fill
G1 X64.285 Y80.947 E58.80977 ; fill
G1 X95.366 Y112.027 E60.64566 ; fill
G1 X96.410 Y112.027 E60.68925 ; fill
G1 X64.285 Y79.903 E62.58680 ; fill
G1 X64.285 Y78.859 E62.63040 ; fill
G1 X97.453 Y112.027 E64.58960 ; fill
G1 X98.497 Y112.027 E64.63320 ; fill
G1 X64.285 Y77.815 E66.65406 ; fill
G1 X64.285 Y76.772 E66.69766 ; fill
G1 X99.541 Y112.027 E68.78018 ; fill
G1 X100.585 Y112.027 E68.82378 ; fill
G1 X64.285 Y75.728 E70.96796 ; fill
G1 X64.285 Y74.684 E71.01156 ; fill
G1 X101.629 Y112.027 E73.21739 ; fill
G1 X102.673 Y112.027 E73.26099 ; fill
G1 X64.285 Y73.640 E75.52848 ; fill
G1 X64.285 Y72.596 E75.57208 ; fill
G1 X103.716 Y112.027 E77.90123 ; fill
G1 X104.760 Y112.027 E77.94483 ; fill
G1 X64.285 Y71.552 E80.33564 ; fill
G1 X64.285 Y70.509 E80.37924 ; fill
G1 X105.804 Y112.027 E82.83171 ; fill
G1 X106.848 Y112.027 E82.87531 ; fill
G1 X64.285 Y69.465 E85.38943 ; fill
G1 X64.285 Y68.421 E85.43303 ; fill
G1 X107.892 Y112.027 E88.00882 ; fill
G1 X108.936 Y112.027 E88.05242 ; fill
G1 X64.285 Y67.377 E90.68986 ; fill
G1 X64.322 Y66.370 E90.73196 ; fill
G1 X109.979 Y112.027 E93.42890 ; fill
G1 X111.023 Y112.027 E93.47250 ; fill
G1 X64.969 Y65.973 E96.19291 ; fill
G1 X66.012 Y65.973 E96.23651 ; fill
G1 X112.067 Y112.027 E98.95691 ; fill
G1 X113.111 Y112.027 E99.00051 ; fill
G1 X67.056 Y65.973 E101.72092 ; fill
G1 X68.100 Y65.973 E101.76452 ; fill
G1 X114.155 Y112.027 E104.48492 ; fill
G1 X115.199 Y112.027 E104.52852 ; fill
G1 X69.144 Y65.973 E107.24893 ; fill
G1 X70.188 Y65.973 E107.29253 ; fill
G1 X116.242 Y112.027 E110.01293 ; fill
G1 X117.286 Y112.027 E110.05653 ; fill
G1 X71.232 Y65.973 E112.77694 ; fill
G1 X72.275 Y65.973 E112.82054 ; fill
G1 X118.330 Y112.027 E115.54095 ; fill
G1 X119.374 Y112.027 E115.58455 ; fill
G1 X73.319 Y65.973 E118.30495 ; fill
G1 X74.363 Y65.973 E118.34855 ; fill
G1 X120.418 Y112.027 E121.06896 ; fill
G1 X121.462 Y112.027 E121.11256 ; fill
G1 X75.407 Y65.973 E123.83296 ; fill
G1 X76.451 Y65.973 E123.87656 ; fill
G1 X122.505 Y112.027 E126.59697 ; fill
G1 X123.549 Y112.027 E126.64057 ; fill
G1 X77.495 Y65.973 E129.36097 ; fill
G1 X78.538 Y65.973 E129.40457 ; fill
G1 X124.593 Y112.027 E132.12498 ; fill
G1 X125.637 Y112.027 E132.16858 ; fill
G1 X79.582 Y65.973 E134.88898 ; fill
G1 X80.626 Y65.973 E134.93258 ; fill
G1 X126.681 Y112.027 E137.65298 ; fill
G1 X127.725 Y112.027 E137.69658 ; fill
G1 X81.670 Y65.973 E140.41698 ; fill
G1 X82.714 Y65.973 E140.46058 ; fill
G1 X128.768 Y112.027 E143.18098 ; fill
G1 X129.812 Y112.027 E143.22458 ; fill
G1 X83.758 Y65.973 E145.94498 ; fill
G1 X84.802 Y65.973 E145.98858 ; fill
G1 X130.856 Y112.027 E148.70898 ; fill
G1 X131.900 Y112.027 E148.75258 ; fill
G1 X85.845 Y65.973 E151.47299 ; fill
G1 X86.889 Y65.973 E151.51658 ; fill
G1 X132.944 Y112.027 E154.23699 ; fill
G1 X133.988 Y112.027 E154.28059 ; fill
G1 X87.933 Y65.973 E157.00099 ; fill
G1 X88.977 Y65.973 E157.04459 ; fill
