; generated by Slic3r 0.9.8-dev on 2012-12-30 at 15:52:49

; layer_height = 0.4
; perimeters = 3
; top_solid_layers = 3
; bottom_solid_layers = 3
; fill_density = 0.4
; perimeter_speed = 30
; infill_speed = 60
; travel_speed = 130
; scale = 1
; nozzle_diameter = 0.5
; filament_diameter = 3
; extrusion_multiplier = 1
; perimeters extrusion width = 0.53mm
; infill extrusion width = 0.53mm
; first layer extrusion width = 0.80mm

M190 S60 ; wait for bed temperature to be reached
M104 S185 ; set temperature
M104 S185 ; set extruder temperature
G28 ; home all axes
M109 S185 ; wait for temperature to be reached
G90 ; use absolute coordinates
G21 ; set units to millimeters
G92 E0 ; reset extrusion distance
M82 ; use absolute distances for extrusion
G1 F1800.000 E-1.00000 ; retract
G92 E0 ; reset extrusion distance
G1 Z0.400 F7800.000 ; move to next layer (0)
G1 X134.893 Y120.740 ; move to first skirt point
G1 F1800.000 E1.00000 ; compensate retraction
G1 X65.093 Y120.740 F540.000 E3.90560 ; skirt
G1 X64.183 Y120.680 E3.94357 ; skirt
G1 X63.433 Y120.580 E3.97506 ; skirt
G1 X63.073 Y120.510 E3.99033 ; skirt
G1 X62.123 Y120.250 E4.03133 ; skirt
G1 X61.783 Y120.130 E4.04634 ; skirt
G1 X61.083 Y119.840 E4.07788 ; skirt
G1 X60.753 Y119.680 E4.09315 ; skirt
G1 X59.953 Y119.220 E4.13156 ; skirt
G1 X59.653 Y119.020 E4.14657 ; skirt
G1 X58.923 Y118.450 E4.18512 ; skirt
G1 X58.653 Y118.210 E4.20016 ; skirt
G1 X58.093 Y117.650 E4.23313 ; skirt
G1 X57.853 Y117.380 E4.24817 ; skirt
G1 X57.283 Y116.650 E4.28672 ; skirt
G1 X57.083 Y116.350 E4.30173 ; skirt
G1 X56.623 Y115.550 E4.34015 ; skirt
G1 X56.463 Y115.220 E4.35541 ; skirt
G1 X56.173 Y114.520 E4.38695 ; skirt
G1 X56.053 Y114.180 E4.40196 ; skirt
G1 X55.793 Y113.230 E4.44296 ; skirt
G1 X55.723 Y112.870 E4.45823 ; skirt
G1 X55.603 Y111.940 E4.49726 ; skirt
G1 X55.573 Y111.210 E4.52768 ; skirt
G1 X55.573 Y66.780 E6.37719 ; skirt
G1 X55.603 Y66.050 E6.40760 ; skirt
G1 X55.723 Y65.120 E6.44664 ; skirt
G1 X55.793 Y64.760 E6.46190 ; skirt
G1 X56.053 Y63.810 E6.50291 ; skirt
G1 X56.173 Y63.470 E6.51791 ; skirt
G1 X56.463 Y62.770 E6.54946 ; skirt
G1 X56.623 Y62.440 E6.56472 ; skirt
G1 X57.083 Y61.640 E6.60314 ; skirt
G1 X57.283 Y61.340 E6.61815 ; skirt
G1 X57.853 Y60.610 E6.65670 ; skirt
G1 X58.093 Y60.340 E6.67174 ; skirt
G1 X58.653 Y59.780 E6.70471 ; skirt
G1 X58.923 Y59.540 E6.71974 ; skirt
G1 X59.653 Y58.970 E6.75830 ; skirt
G1 X59.953 Y58.770 E6.77331 ; skirt
G1 X60.753 Y58.310 E6.81172 ; skirt
G1 X61.083 Y58.150 E6.82699 ; skirt
G1 X61.783 Y57.860 E6.85853 ; skirt
G1 X62.123 Y57.740 E6.87354 ; skirt
G1 X63.073 Y57.480 E6.91454 ; skirt
G1 X63.433 Y57.410 E6.92980 ; skirt
G1 X64.363 Y57.290 E6.96884 ; skirt
G1 X65.093 Y57.260 E6.99925 ; skirt
G1 X135.243 Y57.270 E9.91943 ; skirt
G1 X135.623 Y57.290 E9.93527 ; skirt
G1 X136.593 Y57.420 E9.97601 ; skirt
G1 X136.943 Y57.490 E9.99086 ; skirt
G1 X137.803 Y57.720 E10.02792 ; skirt
G1 X138.153 Y57.840 E10.04332 ; skirt
G1 X138.983 Y58.190 E10.08082 ; skirt
G1 X139.303 Y58.350 E10.09571 ; skirt
G1 X140.033 Y58.770 E10.13077 ; skirt
G1 X140.333 Y58.970 E10.14578 ; skirt
G1 X140.973 Y59.460 E10.17934 ; skirt
G1 X141.253 Y59.700 E10.19469 ; skirt
G1 X141.903 Y60.340 E10.23266 ; skirt
G1 X142.143 Y60.610 E10.24770 ; skirt
G1 X142.713 Y61.340 E10.28625 ; skirt
G1 X142.913 Y61.640 E10.30126 ; skirt
G1 X143.373 Y62.440 E10.33968 ; skirt
G1 X143.533 Y62.770 E10.35494 ; skirt
G1 X143.883 Y63.640 E10.39398 ; skirt
G1 X143.993 Y63.980 E10.40885 ; skirt
G1 X144.243 Y64.950 E10.45055 ; skirt
G1 X144.393 Y66.050 E10.49677 ; skirt
G1 X144.423 Y66.780 E10.52718 ; skirt
G1 X144.423 Y111.210 E12.37669 ; skirt
G1 X144.393 Y111.940 E12.40711 ; skirt
G1 X144.243 Y113.040 E12.45332 ; skirt
G1 X143.993 Y114.010 E12.49502 ; skirt
G1 X143.883 Y114.350 E12.50989 ; skirt
G1 X143.533 Y115.220 E12.54893 ; skirt
G1 X143.373 Y115.550 E12.56420 ; skirt
G1 X142.913 Y116.350 E12.60261 ; skirt
G1 X142.713 Y116.650 E12.61762 ; skirt
G1 X142.143 Y117.380 E12.65618 ; skirt
G1 X141.903 Y117.650 E12.67121 ; skirt
G1 X141.253 Y118.290 E12.70919 ; skirt
G1 X140.973 Y118.530 E12.72454 ; skirt
G1 X140.333 Y119.020 E12.75809 ; skirt
G1 X140.033 Y119.220 E12.77310 ; skirt
G1 X139.303 Y119.640 E12.80816 ; skirt
G1 X138.983 Y119.800 E12.82305 ; skirt
G1 X138.153 Y120.150 E12.86055 ; skirt
G1 X137.803 Y120.270 E12.87595 ; skirt
G1 X136.943 Y120.500 E12.91301 ; skirt
G1 X136.593 Y120.570 E12.92787 ; skirt
G1 X135.803 Y120.680 E12.96107 ; skirt
G1 X135.003 Y120.734 E12.99444 ; skirt
G1 X134.893 Y120.740 E12.99903 ; skirt
G1 F1800.000 E11.99903 ; retract
G92 E0 ; reset extrusion distance
G1 X63.962 Y66.125 F7800.000 ; move to first perimeter point
G1 F1800.000 E1.00000 ; compensate retraction
G1 X64.169 Y65.856 F540.000 E1.01412 ; perimeter
G1 X64.438 Y65.649 E1.02825 ; perimeter
G1 X64.751 Y65.520 E1.04237 ; perimeter
G1 X64.918 Y65.486 E1.04945 ; perimeter
G1 X65.149 Y65.471 E1.05908 ; perimeter
G1 X134.851 Y65.471 E3.96061 ; perimeter
G1 X135.082 Y65.486 E3.97024 ; perimeter
G1 X135.249 Y65.520 E3.97732 ; perimeter
G1 X135.562 Y65.649 E3.99144 ; perimeter
G1 X135.831 Y65.856 E4.00557 ; perimeter
G1 X136.038 Y66.125 E4.01969 ; perimeter
G1 X136.168 Y66.439 E4.03382 ; perimeter
G1 X136.201 Y66.605 E4.04090 ; perimeter
G1 X136.216 Y66.836 E4.05053 ; perimeter
G1 X136.216 Y111.164 E5.89577 ; perimeter
G1 X136.201 Y111.395 E5.90540 ; perimeter
G1 X136.113 Y111.722 E5.91953 ; perimeter
G1 X135.943 Y112.016 E5.93365 ; perimeter
G1 X135.831 Y112.144 E5.94073 ; perimeter
G1 X135.562 Y112.351 E5.95485 ; perimeter
G1 X135.249 Y112.480 E5.96898 ; perimeter
G1 X135.082 Y112.514 E5.97606 ; perimeter
G1 X134.851 Y112.529 E5.98569 ; perimeter
G1 X65.149 Y112.529 E8.88721 ; perimeter
G1 X64.918 Y112.514 E8.89685 ; perimeter
G1 X64.751 Y112.480 E8.90393 ; perimeter
G1 X64.438 Y112.351 E8.91805 ; perimeter
G1 X64.169 Y112.144 E8.93217 ; perimeter
G1 X63.962 Y111.875 E8.94630 ; perimeter
G1 X63.832 Y111.561 E8.96042 ; perimeter
G1 X63.799 Y111.395 E8.96750 ; perimeter
G1 X63.784 Y111.164 E8.97713 ; perimeter
G1 X63.784 Y66.836 E10.82238 ; perimeter
G1 X63.799 Y66.605 E10.83201 ; perimeter
G1 X63.832 Y66.439 E10.83909 ; perimeter
G1 X63.913 Y66.224 E10.84863 ; perimeter
G1 X63.962 Y66.125 E10.85323 ; perimeter
G1 X63.324 Y65.757 F7800.000 ; move to first perimeter point
G1 X63.472 Y65.535 F540.000 E10.86432 ; perimeter
G1 X63.647 Y65.335 E10.87541 ; perimeter
G1 X63.848 Y65.159 E10.88650 ; perimeter
G1 X64.069 Y65.011 E10.89759 ; perimeter
G1 X64.308 Y64.893 E10.90868 ; perimeter
G1 X64.560 Y64.807 E10.91977 ; perimeter
G1 X64.822 Y64.755 E10.93087 ; perimeter
G1 X65.125 Y64.736 E10.94351 ; perimeter
G1 X134.875 Y64.736 E13.84704 ; perimeter
G1 X135.178 Y64.755 E13.85968 ; perimeter
G1 X135.439 Y64.807 E13.87077 ; perimeter
G1 X135.692 Y64.893 E13.88187 ; perimeter
G1 X135.931 Y65.011 E13.89296 ; perimeter
G1 X136.152 Y65.159 E13.90405 ; perimeter
G1 X136.353 Y65.335 E13.91514 ; perimeter
G1 X136.528 Y65.535 E13.92623 ; perimeter
G1 X136.676 Y65.757 E13.93732 ; perimeter
G1 X136.794 Y65.996 E13.94841 ; perimeter
G1 X136.880 Y66.248 E13.95950 ; perimeter
G1 X136.932 Y66.509 E13.97060 ; perimeter
G1 X136.952 Y66.812 E13.98324 ; perimeter
G1 X136.952 Y111.188 E15.83049 ; perimeter
G1 X136.932 Y111.491 E15.84313 ; perimeter
G1 X136.880 Y111.752 E15.85422 ; perimeter
G1 X136.794 Y112.004 E15.86531 ; perimeter
G1 X136.676 Y112.243 E15.87641 ; perimeter
G1 X136.528 Y112.465 E15.88749 ; perimeter
G1 X136.353 Y112.665 E15.89859 ; perimeter
G1 X136.152 Y112.841 E15.90968 ; perimeter
G1 X135.931 Y112.989 E15.92077 ; perimeter
G1 X135.692 Y113.107 E15.93186 ; perimeter
G1 X135.440 Y113.193 E15.94295 ; perimeter
G1 X135.178 Y113.245 E15.95405 ; perimeter
G1 X134.875 Y113.264 E15.96669 ; perimeter
G1 X65.125 Y113.264 E18.87022 ; perimeter
G1 X64.822 Y113.245 E18.88286 ; perimeter
G1 X64.560 Y113.193 E18.89395 ; perimeter
G1 X64.308 Y113.107 E18.90504 ; perimeter
G1 X64.069 Y112.989 E18.91614 ; perimeter
G1 X63.848 Y112.841 E18.92723 ; perimeter
G1 X63.647 Y112.665 E18.93832 ; perimeter
G1 X63.472 Y112.465 E18.94941 ; perimeter
G1 X63.324 Y112.243 E18.96050 ; perimeter
G1 X63.206 Y112.005 E18.97159 ; perimeter
G1 X63.120 Y111.752 E18.98268 ; perimeter
G1 X63.068 Y111.491 E18.99378 ; perimeter
G1 X63.048 Y111.188 E19.00642 ; perimeter
G1 X63.048 Y66.812 E20.85367 ; perimeter
G1 X63.068 Y66.509 E20.86631 ; perimeter
G1 X63.120 Y66.248 E20.87740 ; perimeter
G1 X63.206 Y65.995 E20.88849 ; perimeter
G1 X63.275 Y65.855 E20.89499 ; perimeter
G1 X63.324 Y65.757 E20.89958 ; perimeter
G1 X62.685 Y65.388 F7800.000 ; move to first perimeter point
G1 X62.887 Y65.086 F540.000 E20.91469 ; perimeter
G1 X63.126 Y64.813 E20.92980 ; perimeter
G1 X63.399 Y64.574 E20.94490 ; perimeter
G1 X63.701 Y64.373 E20.96001 ; perimeter
G1 X64.026 Y64.212 E20.97511 ; perimeter
G1 X64.370 Y64.095 E20.99022 ; perimeter
G1 X64.726 Y64.025 E21.00532 ; perimeter
G1 X65.101 Y64.000 E21.02098 ; perimeter
G1 X134.899 Y64.000 E23.92651 ; perimeter
G1 X135.274 Y64.025 E23.94216 ; perimeter
G1 X135.630 Y64.095 E23.95727 ; perimeter
G1 X135.974 Y64.212 E23.97238 ; perimeter
G1 X136.299 Y64.373 E23.98748 ; perimeter
G1 X136.601 Y64.574 E24.00259 ; perimeter
G1 X136.874 Y64.813 E24.01769 ; perimeter
G1 X137.113 Y65.086 E24.03280 ; perimeter
G1 X137.315 Y65.388 E24.04790 ; perimeter
G1 X137.475 Y65.713 E24.06301 ; perimeter
G1 X137.592 Y66.057 E24.07811 ; perimeter
G1 X137.663 Y66.413 E24.09322 ; perimeter
G1 X137.687 Y66.788 E24.10887 ; perimeter
G1 X137.687 Y111.212 E25.95813 ; perimeter
G1 X137.663 Y111.587 E25.97378 ; perimeter
G1 X137.592 Y111.943 E25.98888 ; perimeter
G1 X137.475 Y112.287 E26.00399 ; perimeter
G1 X137.315 Y112.612 E26.01910 ; perimeter
G1 X137.113 Y112.914 E26.03420 ; perimeter
G1 X136.874 Y113.187 E26.04931 ; perimeter
G1 X136.601 Y113.426 E26.06441 ; perimeter
G1 X136.299 Y113.627 E26.07952 ; perimeter
G1 X135.974 Y113.788 E26.09462 ; perimeter
G1 X135.630 Y113.905 E26.10973 ; perimeter
G1 X135.274 Y113.975 E26.12483 ; perimeter
G1 X134.899 Y114.000 E26.14049 ; perimeter
G1 X65.101 Y114.000 E29.04602 ; perimeter
G1 X64.726 Y113.975 E29.06167 ; perimeter
G1 X64.370 Y113.905 E29.07678 ; perimeter
G1 X64.026 Y113.788 E29.09188 ; perimeter
G1 X63.701 Y113.627 E29.10699 ; perimeter
G1 X63.399 Y113.426 E29.12210 ; perimeter
G1 X63.126 Y113.187 E29.13720 ; perimeter
G1 X62.887 Y112.914 E29.15231 ; perimeter
G1 X62.685 Y112.612 E29.16741 ; perimeter
G1 X62.525 Y112.287 E29.18252 ; perimeter
G1 X62.408 Y111.943 E29.19762 ; perimeter
G1 X62.337 Y111.587 E29.21273 ; perimeter
G1 X62.313 Y111.212 E29.22838 ; perimeter
G1 X62.313 Y66.788 E31.07764 ; perimeter
G1 X62.337 Y66.413 E31.09329 ; perimeter
G1 X62.408 Y66.057 E31.10839 ; perimeter
G1 X62.525 Y65.713 E31.12350 ; perimeter
G1 X62.636 Y65.487 E31.13401 ; perimeter
G1 X62.685 Y65.388 E31.13860 ; perimeter
G1 X63.421 Y65.404 F7800.000 ; move inwards before travel
G1 F1800.000 E30.13860 ; retract
G92 E0 ; reset extrusion distance
G1 X64.924 Y111.857 F7800.000 ; move to first fill point
G1 F1800.000 E1.00000 ; compensate retraction
G1 X64.455 Y111.388 F1080.000 E1.02769 ; fill
G1 X64.285 Y110.174 E1.07890 ; fill
G1 X66.138 Y112.027 E1.18835 ; fill
G1 X67.182 Y112.027 E1.23195 ; fill
G1 X64.285 Y109.131 E1.40306 ; fill
G1 X64.285 Y108.087 E1.44665 ; fill
G1 X68.226 Y112.027 E1.67942 ; fill
G1 X69.270 Y112.027 E1.72302 ; fill
G1 X64.285 Y107.043 E2.01745 ; fill
G1 X64.285 Y105.999 E2.06105 ; fill
G1 X70.314 Y112.027 E2.41713 ; fill
G1 X71.357 Y112.027 E2.46073 ; fill
G1 X64.285 Y104.955 E2.87847 ; fill
G1 X64.285 Y103.911 E2.92207 ; fill
G1 X72.401 Y112.027 E3.40147 ; fill
G1 X73.445 Y112.027 E3.44507 ; fill
G1 X64.285 Y102.868 E3.98613 ; fill
G1 X64.285 Y101.824 E4.02973 ; fill
G1 X74.489 Y112.027 E4.63244 ; fill
G1 X75.533 Y112.027 E4.67604 ; fill
G1 X64.285 Y100.780 E5.34042 ; fill
G1 X64.285 Y99.736 E5.38401 ; fill
G1 X76.577 Y112.027 E6.11005 ; fill
G1 X77.620 Y112.027 E6.15365 ; fill
G1 X64.285 Y98.692 E6.94134 ; fill
G1 X64.285 Y97.648 E6.98494 ; fill
G1 X78.664 Y112.027 E7.83428 ; fill
G1 X79.708 Y112.027 E7.87788 ; fill
G1 X64.285 Y96.605 E8.78889 ; fill
G1 X64.285 Y95.561 E8.83249 ; fill
G1 X80.752 Y112.027 E9.80515 ; fill
G1 X81.796 Y112.027 E9.84875 ; fill
G1 X64.285 Y94.517 E10.88308 ; fill
G1 X64.285 Y93.473 E10.92667 ; fill
G1 X82.840 Y112.027 E12.02266 ; fill
G1 X83.884 Y112.027 E12.06626 ; fill
G1 X64.285 Y92.429 E13.22390 ; fill
G1 X64.285 Y91.385 E13.26750 ; fill
G1 X84.927 Y112.027 E14.48680 ; fill
G1 X85.971 Y112.027 E14.53040 ; fill
G1 X64.285 Y90.342 E15.81136 ; fill
G1 X64.285 Y89.298 E15.85496 ; fill
G1 X87.015 Y112.027 E17.19758 ; fill
G1 X88.059 Y112.027 E17.24118 ; fill
G1 X64.285 Y88.254 E18.64545 ; fill
G1 X64.285 Y87.210 E18.68905 ; fill
G1 X89.103 Y112.027 E20.15499 ; fill
G1 X90.147 Y112.027 E20.19859 ; fill
G1 X64.285 Y86.166 E21.72618 ; fill
G1 X64.285 Y85.122 E21.76978 ; fill
G1 X91.190 Y112.027 E23.35903 ; fill
G1 X92.234 Y112.027 E23.40263 ; fill
G1 X64.285 Y84.079 E25.05354 ; fill
G1 X64.285 Y83.035 E25.09714 ; fill
G1 X93.278 Y112.027 E26.80971 ; fill
G1 X94.322 Y112.027 E26.85331 ; fill
G1 X64.285 Y81.991 E28.62754 ; fill
G1 X64.285 Y80.947 E28.67114 ; fill
G1 X95.366 Y112.027 E30.50702 ; fill
G1 X96.410 Y112.027 E30.55062 ; fill
G1 X64.285 Y79.903 E32.44817 ; fill
G1 X64.285 Y78.859 E32.49177 ; fill
G1 X97.453 Y112.027 E34.45097 ; fill
G1 X98.497 Y112.027 E34.49457 ; fill
G1 X64.285 Y77.815 E36.51543 ; fill
G1 X64.285 Y76.772 E36.55903 ; fill
G1 X99.541 Y112.027 E38.64155 ; fill
G1 X100.585 Y112.027 E38.68515 ; fill
G1 X64.285 Y75.728 E40.82932 ; fill
G1 X64.285 Y74.684 E40.87292 ; fill
G1 X101.629 Y112.027 E43.07876 ; fill
G1 X102.673 Y112.027 E43.12236 ; fill
G1 X64.285 Y73.640 E45.38985 ; fill
G1 X64.285 Y72.596 E45.43345 ; fill
G1 X103.716 Y112.027 E47.76260 ; fill
G1 X104.760 Y112.027 E47.80620 ; fill
G1 X64.285 Y71.552 E50.19701 ; fill
G1 X64.285 Y70.509 E50.24061 ; fill
G1 X105.804 Y112.027 E52.69308 ; fill
G1 X106.848 Y112.027 E52.73668 ; fill
G1 X64.285 Y69.465 E55.25080 ; fill
G1 X64.285 Y68.421 E55.29440 ; fill
G1 X107.892 Y112.027 E57.87018 ; fill
G1 X108.936 Y112.027 E57.91378 ; fill
G1 X64.285 Y67.377 E60.55123 ; fill
G1 X64.322 Y66.370 E60.59333 ; fill
G1 X109.979 Y112.027 E63.29027 ; fill
G1 X111.023 Y112.027 E63.33387 ; fill
G1 X64.969 Y65.973 E66.05427 ; fill
G1 X66.012 Y65.973 E66.09787 ; fill
G1 X112.067 Y112.027 E68.81828 ; fill
G1 X113.111 Y112.027 E68.86188 ; fill
G1 X67.056 Y65.973 E71.58228 ; fill
G1 X68.100 Y65.973 E71.62588 ; fill
G1 X114.155 Y112.027 E74.34629 ; fill
G1 X115.199 Y112.027 E74.38989 ; fill
G1 X69.144 Y65.973 E77.11030 ; fill
G1 X70.188 Y65.973 E77.15389 ; fill
G1 X116.242 Y112.027 E79.87430 ; fill
G1 X117.286 Y112.027 E79.91790 ; fill
G1 X71.232 Y65.973 E82.63831 ; fill
G1 X72.275 Y65.973 E82.68191 ; fill
G1 X118.330 Y112.027 E85.40231 ; fill
G1 X119.374 Y112.027 E85.44591 ; fill
G1 X73.319 Y65.973 E88.16632 ; fill
G1 X74.363 Y65.973 E88.20992 ; fill
G1 X120.418 Y112.027 E90.93032 ; fill
G1 X121.462 Y112.027 E90.97392 ; fill
G1 X75.407 Y65.973 E93.69433 ; fill
G1 X76.451 Y65.973 E93.73793 ; fill
G1 X122.505 Y112.027 E96.45833 ; fill
G1 X123.549 Y112.027 E96.50193 ; fill
G1 X77.495 Y65.973 E99.22234 ; fill
G1 X78.538 Y65.973 E99.26594 ; fill
G1 X124.593 Y112.027 E101.98635 ; fill
G1 X125.637 Y112.027 E102.02994 ; fill
G1 X79.582 Y65.973 E104.75035 ; fill
G1 X80.626 Y65.973 E104.79395 ; fill
G1 X126.681 Y112.027 E107.51435 ; fill
G1 X127.725 Y112.027 E107.55795 ; fill
G1 X81.670 Y65.973 E110.27835 ; fill
G1 X82.714 Y65.973 E110.32195 ; fill
G1 X128.768 Y112.027 E113.04235 ; fill
G1 X129.812 Y112.027 E113.08595 ; fill
G1 X83.758 Y65.973 E115.80635 ; fill
G1 X84.802 Y65.973 E115.84995 ; fill
G1 X130.856 Y112.027 E118.57035 ; fill
G1 X131.900 Y112.027 E118.61395 ; fill
G1 X85.845 Y65.973 E121.33435 ; fill
G1 X86.889 Y65.973 E121.37795 ; fill
G1 X132.944 Y112.027 E124.09835 ; fill
G1 X133.988 Y112.027 E124.14195 ; fill
G1 X87.933 Y65.973 E126.86235 ; fill
G1 X88.977 Y65.973 E126.90595 ; fill
