; generated by Slic3r 0.9.8-dev on 2012-12-29 at 19:29:13

; layer_height = 0.4
; perimeters = 3
; top_solid_layers = 3
; bottom_solid_layers = 3
; fill_density = 0.4
; perimeter_speed = 30
; infill_speed = 60
; travel_speed = 130
; scale = 1
; nozzle_diameter = 0.5
; filament_diameter = 3
; extrusion_multiplier = 1
; perimeters extrusion width = 0.53mm
; infill extrusion width = 0.53mm
; first layer extrusion width = 0.80mm

M107 ; disable fan
M190 S60 ; wait for bed temperature to be reached
M104 S185 ; set temperature
M104 S185 ; set extruder temperature
G28 ; home all axes
M109 S185 ; wait for temperature to be reached
G90 ; use absolute coordinates
G21 ; set units to millimeters
G92 E0 ; reset extrusion distance
M82 ; use absolute distances for extrusion
G1 F1800.000 E-1.00000 ; retract
G92 E0 ; reset extrusion distance
G1 Z0.400 F7800.000 ; move to next layer (0)
G1 X137.470 Y117.080 ; move to first skirt point
G1 F1800.000 E1.00000 ; compensate retraction
G1 X116.060 Y126.920 F540.000 E1.98087 ; skirt
G1 X115.480 Y127.120 E2.00641 ; skirt
G1 X114.600 Y127.330 E2.04407 ; skirt
G1 X114.000 Y127.400 E2.06921 ; skirt
G1 X113.390 Y127.410 E2.09461 ; skirt
G1 X90.640 Y126.980 E3.04181 ; skirt
G1 X90.010 Y126.940 E3.06808 ; skirt
G1 X89.380 Y126.840 E3.09464 ; skirt
G1 X89.070 Y126.770 E3.10787 ; skirt
G1 X88.460 Y126.580 E3.13446 ; skirt
G1 X63.020 Y117.290 E4.26187 ; skirt
G1 X62.510 Y117.080 E4.28483 ; skirt
G1 X62.020 Y116.830 E4.30773 ; skirt
G1 X61.330 Y116.380 E4.34202 ; skirt
G1 X60.700 Y115.860 E4.37602 ; skirt
G1 X60.140 Y115.260 E4.41019 ; skirt
G1 X59.810 Y114.820 E4.43308 ; skirt
G1 X59.510 Y114.360 E4.45595 ; skirt
G1 X59.380 Y114.120 E4.46731 ; skirt
G1 X59.140 Y113.630 E4.49002 ; skirt
G1 X58.950 Y113.110 E4.51307 ; skirt
G1 X58.790 Y112.590 E4.53571 ; skirt
G1 X58.640 Y111.780 E4.57001 ; skirt
G1 X58.600 Y111.230 E4.59296 ; skirt
G1 X58.590 Y67.030 E6.43290 ; skirt
G1 X58.640 Y66.220 E6.46668 ; skirt
G1 X58.730 Y65.680 E6.48947 ; skirt
G1 X58.860 Y65.160 E6.51178 ; skirt
G1 X59.030 Y64.640 E6.53456 ; skirt
G1 X59.240 Y64.140 E6.55713 ; skirt
G1 X59.640 Y63.430 E6.59105 ; skirt
G1 X60.110 Y62.770 E6.62478 ; skirt
G1 X60.470 Y62.360 E6.64750 ; skirt
G1 X60.860 Y61.990 E6.66987 ; skirt
G1 X61.070 Y61.810 E6.68139 ; skirt
G1 X61.500 Y61.490 E6.70370 ; skirt
G1 X61.960 Y61.200 E6.72634 ; skirt
G1 X62.440 Y60.940 E6.74906 ; skirt
G1 X63.200 Y60.640 E6.78307 ; skirt
G1 X63.980 Y60.430 E6.81670 ; skirt
G1 X64.520 Y60.340 E6.83949 ; skirt
G1 X65.330 Y60.290 E6.87327 ; skirt
G1 X134.660 Y60.290 E9.75931 ; skirt
G1 X135.470 Y60.340 E9.79309 ; skirt
G1 X135.740 Y60.380 E9.80445 ; skirt
G1 X136.270 Y60.490 E9.82699 ; skirt
G1 X136.790 Y60.640 E9.84951 ; skirt
G1 X137.550 Y60.940 E9.88353 ; skirt
G1 X138.260 Y61.340 E9.91745 ; skirt
G1 X138.710 Y61.650 E9.94020 ; skirt
G1 X139.330 Y62.170 E9.97388 ; skirt
G1 X139.880 Y62.770 E10.00777 ; skirt
G1 X140.350 Y63.430 E10.04149 ; skirt
G1 X140.750 Y64.140 E10.07542 ; skirt
G1 X140.960 Y64.640 E10.09799 ; skirt
G1 X141.200 Y65.420 E10.13196 ; skirt
G1 X141.350 Y66.220 E10.16585 ; skirt
G1 X141.390 Y66.760 E10.18839 ; skirt
G1 X141.400 Y110.960 E12.02832 ; skirt
G1 X141.350 Y111.780 E12.06252 ; skirt
G1 X141.200 Y112.590 E12.09681 ; skirt
G1 X141.040 Y113.110 E12.11946 ; skirt
G1 X140.850 Y113.630 E12.14251 ; skirt
G1 X140.610 Y114.120 E12.16522 ; skirt
G1 X140.330 Y114.590 E12.18799 ; skirt
G1 X140.020 Y115.040 E12.21074 ; skirt
G1 X139.670 Y115.470 E12.23382 ; skirt
G1 X139.080 Y116.040 E12.26797 ; skirt
G1 X138.870 Y116.220 E12.27948 ; skirt
G1 X138.430 Y116.540 E12.30213 ; skirt
G1 X137.960 Y116.830 E12.32512 ; skirt
G1 X137.569 Y117.032 E12.34343 ; skirt
G1 X137.470 Y117.080 E12.34802 ; skirt
G1 F1800.000 E11.34802 ; retract
G92 E0 ; reset extrusion distance
G1 X132.748 Y109.048 F7800.000 ; move to first perimeter point
G1 F1800.000 E1.00000 ; compensate retraction
G1 X67.252 Y109.048 F540.000 E3.72645 ; perimeter
G1 X67.252 Y68.952 E5.39556 ; perimeter
G1 X132.748 Y68.952 E8.12200 ; perimeter
G1 X132.748 Y108.938 E9.78652 ; perimeter
G1 X132.748 Y109.048 E9.79111 ; perimeter
G1 X132.012 Y108.312 F7800.000 ; move to first perimeter point
G1 X67.987 Y108.312 F540.000 E12.45631 ; perimeter
G1 X67.987 Y69.687 E14.06418 ; perimeter
G1 X132.012 Y69.687 E16.72938 ; perimeter
G1 X132.012 Y108.202 E18.33265 ; perimeter
G1 X132.012 Y108.312 E18.33725 ; perimeter
G1 X132.012 Y109.048 F7800.000 ; move inwards before travel
G1 F1800.000 E17.33725 ; retract
G92 E0 ; reset extrusion distance
G1 X133.927 Y110.227 F7800.000 ; move to first perimeter point
G1 F1800.000 E1.00000 ; compensate retraction
G1 X66.073 Y110.227 F540.000 E3.82459 ; perimeter
G1 X66.073 Y67.773 E5.59183 ; perimeter
G1 X133.927 Y67.773 E8.41642 ; perimeter
G1 X133.927 Y110.117 E10.17907 ; perimeter
G1 X133.927 Y110.227 E10.18366 ; perimeter
G1 X134.662 Y110.962 F7800.000 ; move to first perimeter point
G1 X65.338 Y110.962 F540.000 E13.06949 ; perimeter
G1 X65.338 Y67.037 E14.89798 ; perimeter
G1 X134.662 Y67.037 E17.78381 ; perimeter
G1 X134.662 Y110.852 E19.60771 ; perimeter
G1 X134.662 Y110.962 E19.61230 ; perimeter
G1 X134.025 Y110.595 F7800.000 ; move inwards before travel
G1 F1800.000 E18.61230 ; retract
G92 E0 ; reset extrusion distance
G1 X96.850 Y120.100 F7800.000 ; move to first perimeter point
G1 F1800.000 E1.00000 ; compensate retraction
G1 X108.112 Y120.076 F540.000 E1.46880 ; perimeter
G1 X113.523 Y120.684 E1.69544 ; perimeter
G1 F1800.000 E0.69544 ; retract
G92 E0 ; reset extrusion distance
G1 X96.760 Y120.080 F7800.000 ; move to first perimeter point
G1 F1800.000 E1.00000 ; compensate retraction
G1 X96.850 Y120.100 F540.000 E1.00387 ; perimeter
G1 F1800.000 E0.00387 ; retract
G92 E0 ; reset extrusion distance
G1 X94.469 Y120.097 F7800.000 ; move to first perimeter point
G1 F1800.000 E1.00000 ; compensate retraction
G1 X96.760 Y120.080 F540.000 E1.09538 ; perimeter
G1 F1800.000 E0.09538 ; retract
G92 E0 ; reset extrusion distance
G1 X91.690 Y120.093 F7800.000 ; move to first perimeter point
G1 F1800.000 E1.00000 ; compensate retraction
G1 X94.469 Y120.097 F540.000 E1.11567 ; perimeter
G1 F1800.000 E0.11567 ; retract
G92 E0 ; reset extrusion distance
G1 X90.971 Y120.091 F7800.000 ; move to first perimeter point
G1 F1800.000 E1.00000 ; compensate retraction
G1 X91.690 Y120.093 F540.000 E1.02992 ; perimeter
G1 X90.896 Y120.181 F7800.000 ; move to first perimeter point
G1 X90.775 Y119.925 F540.000 E1.04173 ; perimeter
G1 X90.774 Y120.255 F7800.000 ; move to first perimeter point
G1 X90.896 Y120.181 F540.000 E1.04767 ; perimeter
G1 F1800.000 E0.04767 ; retract
G92 E0 ; reset extrusion distance
G1 X66.775 Y109.793 F7800.000 ; move to first fill point
G1 F1800.000 E1.00000 ; compensate retraction
G1 X66.507 Y109.525 F360.000 E1.00907 ; fill
G1 X66.818 Y109.239 E1.01916 ; fill
G1 X66.507 Y108.928 E1.02968 ; fill
G1 X66.818 Y108.643 E1.03977 ; fill
G1 X66.507 Y108.331 E1.05029 ; fill
G1 X66.818 Y108.046 E1.06038 ; fill
G1 X66.507 Y107.734 E1.07091 ; fill
G1 X66.818 Y107.449 E1.08100 ; fill
G1 X66.507 Y107.137 E1.09152 ; fill
G1 X66.818 Y106.852 E1.10161 ; fill
G1 X66.507 Y106.540 E1.11214 ; fill
G1 X66.818 Y106.255 E1.12223 ; fill
G1 X66.507 Y105.944 E1.13275 ; fill
G1 X66.818 Y105.658 E1.14284 ; fill
G1 X66.507 Y105.347 E1.15336 ; fill
G1 X66.818 Y105.061 E1.16345 ; fill
G1 X66.507 Y104.750 E1.17398 ; fill
G1 X66.818 Y104.464 E1.18407 ; fill
G1 X66.507 Y104.153 E1.19459 ; fill
G1 X66.818 Y103.868 E1.20468 ; fill
G1 X66.507 Y103.556 E1.21520 ; fill
G1 X66.818 Y103.271 E1.22529 ; fill
G1 X66.507 Y102.959 E1.23582 ; fill
G1 X66.818 Y102.674 E1.24591 ; fill
G1 X66.507 Y102.362 E1.25643 ; fill
G1 X66.818 Y102.077 E1.26652 ; fill
G1 X66.507 Y101.765 E1.27704 ; fill
G1 X66.818 Y101.480 E1.28714 ; fill
G1 X66.507 Y101.168 E1.29766 ; fill
G1 X66.818 Y100.883 E1.30775 ; fill
G1 X66.507 Y100.572 E1.31827 ; fill
G1 X66.818 Y100.286 E1.32836 ; fill
G1 X66.507 Y99.975 E1.33889 ; fill
G1 X66.818 Y99.689 E1.34898 ; fill
G1 X66.507 Y99.378 E1.35950 ; fill
G1 X66.818 Y99.093 E1.36959 ; fill
G1 X66.507 Y98.781 E1.38011 ; fill
G1 X66.818 Y98.496 E1.39020 ; fill
G1 X66.507 Y98.184 E1.40073 ; fill
G1 X66.818 Y97.899 E1.41082 ; fill
G1 X66.507 Y97.587 E1.42134 ; fill
G1 X66.818 Y97.302 E1.43143 ; fill
G1 X66.507 Y96.990 E1.44195 ; fill
G1 X66.818 Y96.705 E1.45205 ; fill
G1 X66.507 Y96.393 E1.46257 ; fill
G1 X66.818 Y96.108 E1.47266 ; fill
G1 X66.507 Y95.797 E1.48318 ; fill
G1 X66.818 Y95.511 E1.49327 ; fill
G1 X66.507 Y95.200 E1.50380 ; fill
G1 X66.818 Y94.914 E1.51389 ; fill
G1 X66.507 Y94.603 E1.52441 ; fill
G1 X66.818 Y94.317 E1.53450 ; fill
G1 X66.507 Y94.006 E1.54502 ; fill
G1 X66.818 Y93.720 E1.55511 ; fill
G1 X66.507 Y93.409 E1.56564 ; fill
G1 X66.818 Y93.124 E1.57573 ; fill
G1 X66.507 Y92.812 E1.58625 ; fill
G1 X66.818 Y92.527 E1.59634 ; fill
G1 X66.507 Y92.215 E1.60686 ; fill
G1 X66.818 Y91.930 E1.61696 ; fill
G1 X66.507 Y91.618 E1.62748 ; fill
G1 X66.818 Y91.333 E1.63757 ; fill
G1 X66.507 Y91.021 E1.64809 ; fill
G1 X66.818 Y90.736 E1.65818 ; fill
G1 X66.507 Y90.424 E1.66871 ; fill
G1 X66.818 Y90.139 E1.67880 ; fill
G1 X66.507 Y89.828 E1.68932 ; fill
G1 X66.818 Y89.542 E1.69941 ; fill
G1 X66.507 Y89.231 E1.70993 ; fill
G1 X66.818 Y88.945 E1.72002 ; fill
G1 X66.507 Y88.634 E1.73055 ; fill
G1 X66.818 Y88.349 E1.74063 ; fill
G1 X66.507 Y88.037 E1.75116 ; fill
G1 X66.818 Y87.752 E1.76125 ; fill
G1 X66.507 Y87.440 E1.77177 ; fill
G1 X66.818 Y87.155 E1.78186 ; fill
G1 X66.507 Y86.843 E1.79239 ; fill
G1 X66.818 Y86.558 E1.80248 ; fill
G1 X66.507 Y86.246 E1.81300 ; fill
G1 X66.818 Y85.961 E1.82309 ; fill
G1 X66.507 Y85.649 E1.83361 ; fill
G1 X66.818 Y85.364 E1.84370 ; fill
G1 X66.507 Y85.053 E1.85423 ; fill
G1 X66.818 Y84.767 E1.86432 ; fill
G1 X66.507 Y84.456 E1.87484 ; fill
G1 X66.818 Y84.170 E1.88493 ; fill
G1 X66.507 Y83.859 E1.89546 ; fill
G1 X66.818 Y83.573 E1.90554 ; fill
G1 X66.507 Y83.262 E1.91607 ; fill
G1 X66.818 Y82.977 E1.92616 ; fill
G1 X66.507 Y82.665 E1.93668 ; fill
G1 X66.818 Y82.380 E1.94677 ; fill
G1 X66.507 Y82.068 E1.95730 ; fill
G1 X66.818 Y81.783 E1.96739 ; fill
G1 X66.507 Y81.471 E1.97791 ; fill
G1 X66.818 Y81.186 E1.98800 ; fill
G1 X66.507 Y80.874 E1.99852 ; fill
G1 X66.818 Y80.589 E2.00861 ; fill
G1 X66.507 Y80.278 E2.01914 ; fill
G1 X66.818 Y79.992 E2.02923 ; fill
G1 X66.507 Y79.681 E2.03975 ; fill
G1 X66.818 Y79.395 E2.04984 ; fill
G1 X66.507 Y79.084 E2.06037 ; fill
G1 X66.818 Y78.798 E2.07045 ; fill
G1 X66.507 Y78.487 E2.08098 ; fill
G1 X66.818 Y78.201 E2.09107 ; fill
G1 X66.507 Y77.890 E2.10159 ; fill
G1 X66.818 Y77.605 E2.11168 ; fill
G1 X66.507 Y77.293 E2.12220 ; fill
G1 X66.818 Y77.008 E2.13230 ; fill
G1 X66.507 Y76.696 E2.14282 ; fill
G1 X66.818 Y76.411 E2.15291 ; fill
G1 X66.507 Y76.099 E2.16343 ; fill
G1 X66.818 Y75.814 E2.17352 ; fill
G1 X66.507 Y75.502 E2.18405 ; fill
G1 X66.818 Y75.217 E2.19414 ; fill
G1 X66.507 Y74.905 E2.20466 ; fill
G1 X66.818 Y74.620 E2.21475 ; fill
G1 X66.507 Y74.309 E2.22528 ; fill
G1 X66.818 Y74.023 E2.23536 ; fill
G1 X66.507 Y73.712 E2.24589 ; fill
G1 X66.818 Y73.426 E2.25598 ; fill
G1 X66.507 Y73.115 E2.26650 ; fill
G1 X66.818 Y72.830 E2.27659 ; fill
G1 X66.507 Y72.518 E2.28711 ; fill
G1 X66.818 Y72.233 E2.29721 ; fill
G1 X66.507 Y71.921 E2.30773 ; fill
G1 X66.818 Y71.636 E2.31782 ; fill
G1 X66.507 Y71.324 E2.32834 ; fill
G1 X66.818 Y71.039 E2.33843 ; fill
G1 X66.507 Y70.727 E2.34896 ; fill
G1 X66.818 Y70.442 E2.35905 ; fill
G1 X66.507 Y70.130 E2.36957 ; fill
G1 X66.818 Y69.845 E2.37966 ; fill
G1 X66.507 Y69.533 E2.39019 ; fill
G1 X66.818 Y69.248 E2.40027 ; fill
G1 X66.507 Y68.937 E2.41080 ; fill
G1 X66.818 Y68.651 E2.42089 ; fill
G1 X66.507 Y68.340 E2.43141 ; fill
G1 X66.971 Y68.207 E2.44294 ; fill
G1 X67.282 Y68.518 E2.45346 ; fill
G1 X67.567 Y68.207 E2.46355 ; fill
G1 X67.879 Y68.518 E2.47408 ; fill
G1 X68.164 Y68.207 E2.48417 ; fill
G1 X68.476 Y68.518 E2.49469 ; fill
G1 X68.761 Y68.207 E2.50478 ; fill
G1 X69.073 Y68.518 E2.51530 ; fill
G1 X69.358 Y68.207 E2.52539 ; fill
G1 X69.670 Y68.518 E2.53592 ; fill
G1 X69.955 Y68.207 E2.54601 ; fill
G1 X70.267 Y68.518 E2.55653 ; fill
G1 X70.552 Y68.207 E2.56662 ; fill
G1 X70.863 Y68.518 E2.57714 ; fill
G1 X71.149 Y68.207 E2.58723 ; fill
G1 X71.460 Y68.518 E2.59776 ; fill
G1 X71.746 Y68.207 E2.60785 ; fill
G1 X72.057 Y68.518 E2.61837 ; fill
G1 X72.343 Y68.207 E2.62846 ; fill
G1 X72.654 Y68.518 E2.63899 ; fill
G1 X72.939 Y68.207 E2.64908 ; fill
G1 X73.251 Y68.518 E2.65960 ; fill
G1 X73.536 Y68.207 E2.66969 ; fill
G1 X73.848 Y68.518 E2.68021 ; fill
G1 X74.133 Y68.207 E2.69030 ; fill
G1 X74.445 Y68.518 E2.70083 ; fill
G1 X74.730 Y68.207 E2.71092 ; fill
G1 X75.042 Y68.518 E2.72144 ; fill
G1 X75.327 Y68.207 E2.73153 ; fill
G1 X75.639 Y68.518 E2.74205 ; fill
G1 X75.924 Y68.207 E2.75214 ; fill
G1 X76.235 Y68.518 E2.76267 ; fill
G1 X76.521 Y68.207 E2.77276 ; fill
G1 X76.832 Y68.518 E2.78328 ; fill
G1 X77.118 Y68.207 E2.79337 ; fill
G1 X77.429 Y68.518 E2.80390 ; fill
G1 X77.715 Y68.207 E2.81399 ; fill
G1 X78.026 Y68.518 E2.82451 ; fill
G1 X78.311 Y68.207 E2.83460 ; fill
G1 X78.623 Y68.518 E2.84512 ; fill
G1 X78.908 Y68.207 E2.85521 ; fill
G1 X79.220 Y68.518 E2.86574 ; fill
G1 X79.505 Y68.207 E2.87583 ; fill
G1 X79.817 Y68.518 E2.88635 ; fill
G1 X80.102 Y68.207 E2.89644 ; fill
G1 X80.414 Y68.518 E2.90696 ; fill
G1 X80.699 Y68.207 E2.91706 ; fill
G1 X81.011 Y68.518 E2.92758 ; fill
G1 X81.296 Y68.207 E2.93767 ; fill
G1 X81.607 Y68.518 E2.94819 ; fill
G1 X81.893 Y68.207 E2.95828 ; fill
G1 X82.204 Y68.518 E2.96881 ; fill
G1 X82.490 Y68.207 E2.97890 ; fill
G1 X82.801 Y68.518 E2.98942 ; fill
G1 X83.086 Y68.207 E2.99951 ; fill
G1 X83.398 Y68.518 E3.01003 ; fill
G1 X83.683 Y68.207 E3.02012 ; fill
G1 X83.995 Y68.518 E3.03065 ; fill
G1 X84.280 Y68.207 E3.04074 ; fill
G1 X84.592 Y68.518 E3.05126 ; fill
G1 X84.877 Y68.207 E3.06135 ; fill
G1 X85.189 Y68.518 E3.07187 ; fill
G1 X85.474 Y68.207 E3.08197 ; fill
G1 X85.786 Y68.518 E3.09249 ; fill
G1 X86.071 Y68.207 E3.10258 ; fill
G1 X86.382 Y68.518 E3.11310 ; fill
G1 X86.668 Y68.207 E3.12319 ; fill
G1 X86.979 Y68.518 E3.13372 ; fill
G1 X87.265 Y68.207 E3.14380 ; fill
G1 X87.576 Y68.518 E3.15433 ; fill
G1 X87.862 Y68.207 E3.16442 ; fill
G1 X88.173 Y68.518 E3.17494 ; fill
G1 X88.458 Y68.207 E3.18503 ; fill
G1 X88.770 Y68.518 E3.19556 ; fill
G1 X89.055 Y68.207 E3.20565 ; fill
G1 X89.367 Y68.518 E3.21617 ; fill
G1 X89.652 Y68.207 E3.22626 ; fill
G1 X89.964 Y68.518 E3.23678 ; fill
G1 X90.249 Y68.207 E3.24688 ; fill
G1 X90.561 Y68.518 E3.25740 ; fill
G1 X90.846 Y68.207 E3.26749 ; fill
G1 X91.158 Y68.518 E3.27801 ; fill
G1 X91.443 Y68.207 E3.28810 ; fill
G1 X91.754 Y68.518 E3.29863 ; fill
G1 X92.040 Y68.207 E3.30871 ; fill
G1 X92.351 Y68.518 E3.31924 ; fill
G1 X92.637 Y68.207 E3.32933 ; fill
G1 X92.948 Y68.518 E3.33985 ; fill
G1 X93.234 Y68.207 E3.34994 ; fill
G1 X93.545 Y68.518 E3.36047 ; fill
G1 X93.830 Y68.207 E3.37056 ; fill
G1 X94.142 Y68.518 E3.38108 ; fill
G1 X94.427 Y68.207 E3.39117 ; fill
G1 X94.739 Y68.518 E3.40169 ; fill
G1 X95.024 Y68.207 E3.41178 ; fill
G1 X95.336 Y68.518 E3.42231 ; fill
G1 X95.621 Y68.207 E3.43240 ; fill
G1 X95.933 Y68.518 E3.44292 ; fill
G1 X96.218 Y68.207 E3.45301 ; fill
G1 X96.530 Y68.518 E3.46353 ; fill
G1 X96.815 Y68.207 E3.47362 ; fill
G1 X97.126 Y68.518 E3.48415 ; fill
G1 X97.412 Y68.207 E3.49424 ; fill
G1 X97.723 Y68.518 E3.50476 ; fill
G1 X98.009 Y68.207 E3.51485 ; fill
G1 X98.320 Y68.518 E3.52538 ; fill
G1 X98.605 Y68.207 E3.53546 ; fill
G1 X98.917 Y68.518 E3.54599 ; fill
G1 X99.202 Y68.207 E3.55608 ; fill
G1 X99.514 Y68.518 E3.56660 ; fill
G1 X99.799 Y68.207 E3.57669 ; fill
G1 X100.111 Y68.518 E3.58722 ; fill
G1 X100.396 Y68.207 E3.59731 ; fill
G1 X100.708 Y68.518 E3.60783 ; fill
G1 X100.993 Y68.207 E3.61792 ; fill
G1 X101.305 Y68.518 E3.62844 ; fill
G1 X101.590 Y68.207 E3.63853 ; fill
G1 X101.902 Y68.518 E3.64906 ; fill
G1 X102.187 Y68.207 E3.65915 ; fill
G1 X102.498 Y68.518 E3.66967 ; fill
G1 X102.784 Y68.207 E3.67976 ; fill
G1 X103.095 Y68.518 E3.69029 ; fill
G1 X103.381 Y68.207 E3.70037 ; fill
G1 X103.692 Y68.518 E3.71090 ; fill
