; generated by Slic3r 0.9.8-dev on 2012-12-29 at 20:06:01

; layer_height = 0.4
; perimeters = 3
; top_solid_layers = 3
; bottom_solid_layers = 3
; fill_density = 0.4
; perimeter_speed = 30
; infill_speed = 60
; travel_speed = 130
; scale = 1
; nozzle_diameter = 0.5
; filament_diameter = 3
; extrusion_multiplier = 1
; perimeters extrusion width = 0.53mm
; infill extrusion width = 0.53mm
; first layer extrusion width = 0.80mm

M107 ; disable fan
M190 S60 ; wait for bed temperature to be reached
M104 S185 ; set temperature
M104 S185 ; set extruder temperature
G28 ; home all axes
M109 S185 ; wait for temperature to be reached
G90 ; use absolute coordinates
G21 ; set units to millimeters
G92 E0 ; reset extrusion distance
M82 ; use absolute distances for extrusion
G1 F1800.000 E-1.00000 ; retract
G92 E0 ; reset extrusion distance
G1 Z0.400 F7800.000 ; move to next layer (0)
G1 X134.910 Y120.740 ; move to first skirt point
G1 F1800.000 E1.00000 ; compensate retraction
G1 X65.080 Y120.740 F540.000 E3.90685 ; skirt
G1 X64.170 Y120.680 E3.94481 ; skirt
G1 X63.420 Y120.580 E3.97631 ; skirt
G1 X63.060 Y120.510 E3.99158 ; skirt
G1 X62.110 Y120.250 E4.03258 ; skirt
G1 X61.770 Y120.130 E4.04759 ; skirt
G1 X61.070 Y119.840 E4.07913 ; skirt
G1 X60.740 Y119.680 E4.09440 ; skirt
G1 X59.940 Y119.220 E4.13281 ; skirt
G1 X59.640 Y119.020 E4.14782 ; skirt
G1 X58.910 Y118.450 E4.18637 ; skirt
G1 X58.640 Y118.210 E4.20141 ; skirt
G1 X58.080 Y117.650 E4.23438 ; skirt
G1 X57.840 Y117.380 E4.24942 ; skirt
G1 X57.270 Y116.650 E4.28797 ; skirt
G1 X57.070 Y116.350 E4.30298 ; skirt
G1 X56.610 Y115.550 E4.34139 ; skirt
G1 X56.450 Y115.220 E4.35666 ; skirt
G1 X56.160 Y114.520 E4.38820 ; skirt
G1 X56.040 Y114.180 E4.40321 ; skirt
G1 X55.780 Y113.230 E4.44421 ; skirt
G1 X55.710 Y112.870 E4.45948 ; skirt
G1 X55.590 Y111.940 E4.49851 ; skirt
G1 X55.560 Y111.210 E4.52893 ; skirt
G1 X55.560 Y66.780 E6.37844 ; skirt
G1 X55.590 Y66.050 E6.40885 ; skirt
G1 X55.710 Y65.120 E6.44789 ; skirt
G1 X55.780 Y64.760 E6.46315 ; skirt
G1 X56.040 Y63.810 E6.50415 ; skirt
G1 X56.160 Y63.470 E6.51916 ; skirt
G1 X56.450 Y62.770 E6.55070 ; skirt
G1 X56.610 Y62.440 E6.56597 ; skirt
G1 X57.070 Y61.640 E6.60439 ; skirt
G1 X57.270 Y61.340 E6.61939 ; skirt
G1 X57.840 Y60.610 E6.65795 ; skirt
G1 X58.080 Y60.340 E6.67299 ; skirt
G1 X58.640 Y59.780 E6.70595 ; skirt
G1 X58.910 Y59.540 E6.72099 ; skirt
G1 X59.640 Y58.970 E6.75955 ; skirt
G1 X59.940 Y58.770 E6.77456 ; skirt
G1 X60.740 Y58.310 E6.81297 ; skirt
G1 X61.070 Y58.150 E6.82824 ; skirt
G1 X61.770 Y57.860 E6.85978 ; skirt
G1 X62.110 Y57.740 E6.87479 ; skirt
G1 X63.060 Y57.480 E6.91579 ; skirt
G1 X63.420 Y57.410 E6.93105 ; skirt
G1 X64.350 Y57.290 E6.97009 ; skirt
G1 X65.080 Y57.260 E7.00050 ; skirt
G1 X135.270 Y57.270 E9.92234 ; skirt
G1 X135.640 Y57.290 E9.93776 ; skirt
G1 X136.570 Y57.410 E9.97680 ; skirt
G1 X136.930 Y57.480 E9.99207 ; skirt
G1 X137.880 Y57.740 E10.03307 ; skirt
G1 X138.220 Y57.860 E10.04807 ; skirt
G1 X138.920 Y58.150 E10.07962 ; skirt
G1 X139.250 Y58.310 E10.09488 ; skirt
G1 X140.050 Y58.770 E10.13330 ; skirt
G1 X140.350 Y58.970 E10.14831 ; skirt
G1 X141.080 Y59.540 E10.18686 ; skirt
G1 X141.350 Y59.780 E10.20190 ; skirt
G1 X141.910 Y60.340 E10.23487 ; skirt
G1 X142.150 Y60.610 E10.24990 ; skirt
G1 X142.720 Y61.340 E10.28846 ; skirt
G1 X142.920 Y61.640 E10.30347 ; skirt
G1 X143.380 Y62.440 E10.34188 ; skirt
G1 X143.540 Y62.770 E10.35715 ; skirt
G1 X143.830 Y63.470 E10.38869 ; skirt
G1 X143.950 Y63.810 E10.40370 ; skirt
G1 X144.210 Y64.760 E10.44470 ; skirt
G1 X144.280 Y65.120 E10.45997 ; skirt
G1 X144.380 Y65.870 E10.49146 ; skirt
G1 X144.410 Y66.240 E10.50691 ; skirt
G1 X144.440 Y66.780 E10.52943 ; skirt
G1 X144.440 Y111.210 E12.37894 ; skirt
G1 X144.380 Y112.120 E12.41690 ; skirt
G1 X144.280 Y112.870 E12.44840 ; skirt
G1 X144.210 Y113.230 E12.46367 ; skirt
G1 X143.950 Y114.180 E12.50467 ; skirt
G1 X143.830 Y114.520 E12.51968 ; skirt
G1 X143.540 Y115.220 E12.55122 ; skirt
G1 X143.380 Y115.550 E12.56648 ; skirt
G1 X142.920 Y116.350 E12.60490 ; skirt
G1 X142.720 Y116.650 E12.61991 ; skirt
G1 X142.150 Y117.380 E12.65846 ; skirt
G1 X141.910 Y117.650 E12.67350 ; skirt
G1 X141.350 Y118.210 E12.70647 ; skirt
G1 X141.080 Y118.450 E12.72151 ; skirt
G1 X140.350 Y119.020 E12.76006 ; skirt
G1 X140.050 Y119.220 E12.77507 ; skirt
G1 X139.250 Y119.680 E12.81348 ; skirt
G1 X138.920 Y119.840 E12.82875 ; skirt
G1 X138.220 Y120.130 E12.86029 ; skirt
G1 X137.880 Y120.250 E12.87530 ; skirt
G1 X136.930 Y120.510 E12.91630 ; skirt
G1 X136.570 Y120.580 E12.93157 ; skirt
G1 X135.820 Y120.680 E12.96306 ; skirt
G1 X135.020 Y120.734 E12.99643 ; skirt
G1 X134.910 Y120.740 E13.00103 ; skirt
G1 F1800.000 E12.00103 ; retract
G92 E0 ; reset extrusion distance
G1 X134.864 Y65.471 F7800.000 ; move to first perimeter point
G1 F1800.000 E1.00000 ; compensate retraction
G1 X135.095 Y65.486 F540.000 E1.00963 ; perimeter
G1 X135.422 Y65.574 E1.02376 ; perimeter
G1 X135.716 Y65.744 E1.03788 ; perimeter
G1 X135.844 Y65.856 E1.04496 ; perimeter
G1 X136.051 Y66.125 E1.05908 ; perimeter
G1 X136.126 Y66.278 E1.06616 ; perimeter
G1 X136.214 Y66.605 E1.08029 ; perimeter
G1 X136.229 Y66.836 E1.08992 ; perimeter
G1 X136.229 Y111.164 E2.93516 ; perimeter
G1 X136.214 Y111.395 E2.94479 ; perimeter
G1 X136.126 Y111.722 E2.95892 ; perimeter
G1 X136.051 Y111.875 E2.96600 ; perimeter
G1 X135.844 Y112.144 E2.98012 ; perimeter
G1 X135.716 Y112.256 E2.98720 ; perimeter
G1 X135.422 Y112.426 E3.00132 ; perimeter
G1 X135.095 Y112.514 E3.01545 ; perimeter
G1 X134.864 Y112.529 E3.02508 ; perimeter
G1 X65.136 Y112.529 E5.92766 ; perimeter
G1 X64.905 Y112.514 E5.93730 ; perimeter
G1 X64.578 Y112.426 E5.95142 ; perimeter
G1 X64.425 Y112.351 E5.95850 ; perimeter
G1 X64.156 Y112.144 E5.97262 ; perimeter
G1 X63.949 Y111.875 E5.98675 ; perimeter
G1 X63.874 Y111.722 E5.99382 ; perimeter
G1 X63.786 Y111.395 E6.00795 ; perimeter
G1 X63.771 Y111.164 E6.01758 ; perimeter
G1 X63.771 Y66.836 E7.86282 ; perimeter
G1 X63.786 Y66.605 E7.87246 ; perimeter
G1 X63.820 Y66.439 E7.87953 ; perimeter
G1 X63.949 Y66.125 E7.89366 ; perimeter
G1 X64.156 Y65.856 E7.90778 ; perimeter
G1 X64.425 Y65.649 E7.92191 ; perimeter
G1 X64.739 Y65.520 E7.93603 ; perimeter
G1 X64.905 Y65.486 E7.94311 ; perimeter
G1 X65.136 Y65.471 E7.95274 ; perimeter
G1 X134.753 Y65.471 E10.85073 ; perimeter
G1 X134.864 Y65.471 E10.85533 ; perimeter
G1 X134.888 Y64.736 F7800.000 ; move to first perimeter point
G1 X135.191 Y64.755 F540.000 E10.86797 ; perimeter
G1 X135.452 Y64.807 E10.87906 ; perimeter
G1 X135.705 Y64.893 E10.89015 ; perimeter
G1 X135.943 Y65.011 E10.90124 ; perimeter
G1 X136.165 Y65.159 E10.91233 ; perimeter
G1 X136.365 Y65.335 E10.92342 ; perimeter
G1 X136.541 Y65.535 E10.93451 ; perimeter
G1 X136.689 Y65.757 E10.94561 ; perimeter
G1 X136.807 Y65.996 E10.95670 ; perimeter
G1 X136.893 Y66.248 E10.96779 ; perimeter
G1 X136.945 Y66.509 E10.97888 ; perimeter
G1 X136.964 Y66.812 E10.99152 ; perimeter
G1 X136.964 Y111.188 E12.83877 ; perimeter
G1 X136.945 Y111.491 E12.85142 ; perimeter
G1 X136.893 Y111.752 E12.86251 ; perimeter
G1 X136.807 Y112.004 E12.87360 ; perimeter
G1 X136.689 Y112.243 E12.88469 ; perimeter
G1 X136.541 Y112.465 E12.89578 ; perimeter
G1 X136.365 Y112.665 E12.90687 ; perimeter
G1 X136.165 Y112.841 E12.91796 ; perimeter
G1 X135.943 Y112.989 E12.92906 ; perimeter
G1 X135.704 Y113.107 E12.94015 ; perimeter
G1 X135.452 Y113.193 E12.95124 ; perimeter
G1 X135.191 Y113.245 E12.96233 ; perimeter
G1 X134.888 Y113.264 E12.97497 ; perimeter
G1 X65.112 Y113.264 E15.87956 ; perimeter
G1 X64.809 Y113.245 E15.89220 ; perimeter
G1 X64.548 Y113.193 E15.90329 ; perimeter
G1 X64.295 Y113.107 E15.91439 ; perimeter
G1 X64.057 Y112.989 E15.92548 ; perimeter
G1 X63.835 Y112.841 E15.93657 ; perimeter
G1 X63.635 Y112.665 E15.94766 ; perimeter
G1 X63.459 Y112.465 E15.95875 ; perimeter
G1 X63.311 Y112.243 E15.96984 ; perimeter
G1 X63.193 Y112.004 E15.98094 ; perimeter
G1 X63.107 Y111.752 E15.99203 ; perimeter
G1 X63.055 Y111.491 E16.00312 ; perimeter
G1 X63.036 Y111.188 E16.01576 ; perimeter
G1 X63.036 Y66.812 E17.86301 ; perimeter
G1 X63.055 Y66.509 E17.87565 ; perimeter
G1 X63.107 Y66.248 E17.88674 ; perimeter
G1 X63.193 Y65.995 E17.89784 ; perimeter
G1 X63.311 Y65.757 E17.90893 ; perimeter
G1 X63.459 Y65.535 E17.92002 ; perimeter
G1 X63.635 Y65.335 E17.93111 ; perimeter
G1 X63.835 Y65.159 E17.94220 ; perimeter
G1 X64.057 Y65.011 E17.95329 ; perimeter
G1 X64.295 Y64.893 E17.96438 ; perimeter
G1 X64.548 Y64.807 E17.97548 ; perimeter
G1 X64.809 Y64.755 E17.98657 ; perimeter
G1 X65.112 Y64.736 E17.99921 ; perimeter
G1 X134.778 Y64.736 E20.89921 ; perimeter
G1 X134.888 Y64.736 E20.90380 ; perimeter
G1 X134.942 Y64.002 F7800.000 ; move to first perimeter point
G1 X135.287 Y64.025 F540.000 E20.91818 ; perimeter
G1 X135.643 Y64.095 E20.93329 ; perimeter
G1 X135.987 Y64.212 E20.94839 ; perimeter
G1 X136.312 Y64.373 E20.96350 ; perimeter
G1 X136.614 Y64.574 E20.97860 ; perimeter
G1 X136.887 Y64.813 E20.99371 ; perimeter
G1 X137.126 Y65.086 E21.00881 ; perimeter
G1 X137.327 Y65.388 E21.02392 ; perimeter
G1 X137.488 Y65.713 E21.03903 ; perimeter
G1 X137.605 Y66.057 E21.05413 ; perimeter
G1 X137.675 Y66.413 E21.06924 ; perimeter
G1 X137.700 Y66.788 E21.08489 ; perimeter
G1 X137.700 Y111.212 E22.93414 ; perimeter
G1 X137.675 Y111.587 E22.94980 ; perimeter
G1 X137.605 Y111.943 E22.96490 ; perimeter
G1 X137.488 Y112.287 E22.98001 ; perimeter
G1 X137.327 Y112.612 E22.99511 ; perimeter
G1 X137.126 Y112.914 E23.01022 ; perimeter
G1 X136.887 Y113.187 E23.02532 ; perimeter
G1 X136.614 Y113.426 E23.04043 ; perimeter
G1 X136.312 Y113.627 E23.05553 ; perimeter
G1 X135.987 Y113.788 E23.07064 ; perimeter
G1 X135.643 Y113.905 E23.08574 ; perimeter
G1 X135.287 Y113.975 E23.10085 ; perimeter
G1 X134.912 Y114.000 E23.11650 ; perimeter
G1 X65.088 Y114.000 E26.02310 ; perimeter
G1 X64.713 Y113.975 E26.03875 ; perimeter
G1 X64.357 Y113.905 E26.05385 ; perimeter
G1 X64.013 Y113.788 E26.06896 ; perimeter
G1 X63.688 Y113.627 E26.08406 ; perimeter
G1 X63.386 Y113.426 E26.09917 ; perimeter
G1 X63.113 Y113.187 E26.11428 ; perimeter
G1 X62.874 Y112.914 E26.12938 ; perimeter
G1 X62.673 Y112.612 E26.14449 ; perimeter
G1 X62.512 Y112.287 E26.15959 ; perimeter
G1 X62.395 Y111.943 E26.17470 ; perimeter
G1 X62.325 Y111.587 E26.18980 ; perimeter
G1 X62.300 Y111.212 E26.20546 ; perimeter
G1 X62.300 Y66.788 E28.05471 ; perimeter
G1 X62.325 Y66.413 E28.07036 ; perimeter
G1 X62.395 Y66.057 E28.08547 ; perimeter
G1 X62.512 Y65.713 E28.10057 ; perimeter
G1 X62.673 Y65.388 E28.11568 ; perimeter
G1 X62.874 Y65.086 E28.13078 ; perimeter
G1 X63.113 Y64.813 E28.14589 ; perimeter
G1 X63.386 Y64.574 E28.16099 ; perimeter
G1 X63.688 Y64.373 E28.17610 ; perimeter
G1 X64.013 Y64.212 E28.19121 ; perimeter
G1 X64.357 Y64.095 E28.20631 ; perimeter
G1 X64.713 Y64.025 E28.22142 ; perimeter
G1 X65.088 Y64.000 E28.23707 ; perimeter
G1 X134.832 Y64.000 E31.14034 ; perimeter
G1 X134.942 Y64.002 E31.14493 ; perimeter
G1 X135.282 Y64.655 F7800.000 ; move inwards before travel
G1 F1800.000 E30.14493 ; retract
G92 E0 ; reset extrusion distance
G1 X64.912 Y111.857 F7800.000 ; move to first fill point
G1 F1800.000 E1.00000 ; compensate retraction
G1 X64.443 Y111.388 F1080.000 E1.02770 ; fill
G1 X64.273 Y110.174 E1.07892 ; fill
G1 X66.126 Y112.027 E1.18841 ; fill
G1 X67.170 Y112.027 E1.23203 ; fill
G1 X64.273 Y109.130 E1.40320 ; fill
G1 X64.273 Y108.086 E1.44682 ; fill
G1 X68.214 Y112.027 E1.67967 ; fill
G1 X69.258 Y112.027 E1.72329 ; fill
G1 X64.273 Y107.042 E2.01784 ; fill
G1 X64.273 Y105.998 E2.06146 ; fill
G1 X70.302 Y112.027 E2.41768 ; fill
G1 X71.346 Y112.027 E2.46131 ; fill
G1 X64.273 Y104.954 E2.87922 ; fill
G1 X64.273 Y103.910 E2.92284 ; fill
G1 X72.390 Y112.027 E3.40244 ; fill
G1 X73.434 Y112.027 E3.44605 ; fill
G1 X64.273 Y102.866 E3.98734 ; fill
G1 X64.273 Y101.822 E4.03096 ; fill
G1 X74.478 Y112.027 E4.63393 ; fill
G1 X75.522 Y112.027 E4.67754 ; fill
G1 X64.273 Y100.778 E5.34220 ; fill
G1 X64.273 Y99.734 E5.38582 ; fill
G1 X76.566 Y112.027 E6.11216 ; fill
G1 X77.611 Y112.027 E6.15578 ; fill
G1 X64.273 Y98.689 E6.94381 ; fill
G1 X64.273 Y97.645 E6.98743 ; fill
G1 X78.655 Y112.027 E7.83714 ; fill
G1 X79.699 Y112.027 E7.88076 ; fill
G1 X64.273 Y96.601 E8.79216 ; fill
G1 X64.273 Y95.557 E8.83578 ; fill
G1 X80.743 Y112.027 E9.80886 ; fill
G1 X81.787 Y112.027 E9.85248 ; fill
G1 X64.273 Y94.513 E10.88725 ; fill
G1 X64.273 Y93.469 E10.93086 ; fill
G1 X82.831 Y112.027 E12.02732 ; fill
G1 X83.875 Y112.027 E12.07094 ; fill
G1 X64.273 Y92.425 E13.22908 ; fill
G1 X64.273 Y91.381 E13.27269 ; fill
G1 X84.919 Y112.027 E14.49252 ; fill
G1 X85.963 Y112.027 E14.53614 ; fill
G1 X64.273 Y90.337 E15.81765 ; fill
G1 X64.273 Y89.293 E15.86127 ; fill
G1 X87.007 Y112.027 E17.20446 ; fill
G1 X88.051 Y112.027 E17.24808 ; fill
G1 X64.273 Y88.249 E18.65297 ; fill
G1 X64.273 Y87.205 E18.69658 ; fill
G1 X89.095 Y112.027 E20.16315 ; fill
G1 X90.139 Y112.027 E20.20677 ; fill
G1 X64.273 Y86.161 E21.73502 ; fill
G1 X64.273 Y85.117 E21.77864 ; fill
G1 X91.183 Y112.027 E23.36857 ; fill
G1 X92.227 Y112.027 E23.41219 ; fill
G1 X64.273 Y84.073 E25.06382 ; fill
G1 X64.273 Y83.028 E25.10744 ; fill
G1 X93.272 Y112.027 E26.82075 ; fill
G1 X94.316 Y112.027 E26.86436 ; fill
G1 X64.273 Y81.984 E28.63935 ; fill
G1 X64.273 Y80.940 E28.68297 ; fill
G1 X95.360 Y112.027 E30.51965 ; fill
G1 X96.404 Y112.027 E30.56327 ; fill
G1 X64.273 Y79.896 E32.46163 ; fill
G1 X64.273 Y78.852 E32.50525 ; fill
G1 X97.448 Y112.027 E34.46530 ; fill
G1 X98.492 Y112.027 E34.50892 ; fill
G1 X64.273 Y77.808 E36.53066 ; fill
G1 X64.273 Y76.764 E36.57428 ; fill
G1 X99.536 Y112.027 E38.65770 ; fill
G1 X100.580 Y112.027 E38.70132 ; fill
G1 X64.273 Y75.720 E40.84642 ; fill
G1 X64.273 Y74.676 E40.89004 ; fill
G1 X101.624 Y112.027 E43.09683 ; fill
G1 X102.668 Y112.027 E43.14045 ; fill
G1 X64.273 Y73.632 E45.40893 ; fill
G1 X64.273 Y72.588 E45.45255 ; fill
G1 X103.712 Y112.027 E47.78271 ; fill
G1 X104.756 Y112.027 E47.82633 ; fill
G1 X64.273 Y71.544 E50.21818 ; fill
G1 X64.273 Y70.500 E50.26180 ; fill
G1 X105.800 Y112.027 E52.71533 ; fill
G1 X106.844 Y112.027 E52.75895 ; fill
G1 X64.273 Y69.456 E55.27417 ; fill
G1 X64.273 Y68.412 E55.31779 ; fill
G1 X107.888 Y112.027 E57.89469 ; fill
G1 X108.932 Y112.027 E57.93831 ; fill
G1 X64.273 Y67.368 E60.57690 ; fill
G1 X64.311 Y66.362 E60.61894 ; fill
G1 X109.977 Y112.027 E63.31693 ; fill
G1 X111.021 Y112.027 E63.36055 ; fill
G1 X64.966 Y65.973 E66.08155 ; fill
G1 X66.010 Y65.973 E66.12517 ; fill
G1 X112.065 Y112.027 E68.84617 ; fill
G1 X113.109 Y112.027 E68.88979 ; fill
G1 X67.054 Y65.973 E71.61079 ; fill
G1 X68.098 Y65.973 E71.65441 ; fill
G1 X114.153 Y112.027 E74.37541 ; fill
G1 X115.197 Y112.027 E74.41903 ; fill
G1 X69.142 Y65.973 E77.14003 ; fill
G1 X70.186 Y65.973 E77.18365 ; fill
G1 X116.241 Y112.027 E79.90465 ; fill
G1 X117.285 Y112.027 E79.94827 ; fill
G1 X71.230 Y65.973 E82.66927 ; fill
G1 X72.274 Y65.973 E82.71289 ; fill
G1 X118.329 Y112.027 E85.43389 ; fill
G1 X119.373 Y112.027 E85.47751 ; fill
G1 X73.319 Y65.973 E88.19851 ; fill
G1 X74.363 Y65.973 E88.24213 ; fill
G1 X120.417 Y112.027 E90.96313 ; fill
G1 X121.461 Y112.027 E91.00674 ; fill
G1 X75.407 Y65.973 E93.72774 ; fill
G1 X76.451 Y65.973 E93.77136 ; fill
G1 X122.505 Y112.027 E96.49236 ; fill
G1 X123.549 Y112.027 E96.53598 ; fill
G1 X77.495 Y65.973 E99.25698 ; fill
G1 X78.539 Y65.973 E99.30060 ; fill
G1 X124.593 Y112.027 E102.02160 ; fill
G1 X125.638 Y112.027 E102.06522 ; fill
G1 X79.583 Y65.973 E104.78622 ; fill
G1 X80.627 Y65.973 E104.82983 ; fill
G1 X126.682 Y112.027 E107.55083 ; fill
G1 X127.726 Y112.027 E107.59445 ; fill
G1 X81.671 Y65.973 E110.31545 ; fill
G1 X82.715 Y65.973 E110.35907 ; fill
G1 X128.770 Y112.027 E113.08007 ; fill
G1 X129.814 Y112.027 E113.12369 ; fill
G1 X83.759 Y65.973 E115.84469 ; fill
G1 X84.803 Y65.973 E115.88831 ; fill
G1 X130.858 Y112.027 E118.60931 ; fill
G1 X131.902 Y112.027 E118.65293 ; fill
G1 X85.847 Y65.973 E121.37393 ; fill
G1 X86.891 Y65.973 E121.41754 ; fill
