; generated by Slic3r 0.9.7 on 2012-12-20 at 13:16:29

; layer_height = 0.4
; perimeters = 3
; top_solid_layers = 3
; bottom_solid_layers = 3
; fill_density = 0.4
; perimeter_speed = 30
; infill_speed = 60
; travel_speed = 130
; scale = 1
; nozzle_diameter = 0.5
; filament_diameter = 3
; extrusion_multiplier = 1
; perimeters extrusion width = 0.53mm
; infill extrusion width = 0.53mm
; first layer extrusion width = 0.80mm

M107
M190 S60 ; wait for bed temperature to be reached
M104 S185 ; set temperature
G28 ; home all axes
M109 S185 ; wait for temperature to be reached
G90 ; use absolute coordinates
G21 ; set units to millimeters
G92 E0
M82 ; use absolute distances for extrusion
G1 F1800.000 E-1.00000
G92 E0
G1 Z0.400 F7800.000
G1 X55.782 Y69.897
G1 F1800.000 E1.00000
G1 X57.172 Y68.877 F540.000 E1.07177
G1 X57.492 Y68.677 E1.08748
G1 X59.202 Y67.797 E1.16753
G1 X59.542 Y67.657 E1.18284
G1 X60.972 Y67.177 E1.24563
G1 X62.142 Y66.897 E1.29571
G1 X62.562 Y66.827 E1.31344
G1 X63.402 Y66.737 E1.34860
G1 X64.252 Y66.707 E1.38401
G1 X136.142 Y66.717 E4.37661
G1 X136.962 Y66.777 E4.41084
G1 X137.782 Y66.887 E4.44528
G1 X138.192 Y66.967 E4.46267
G1 X138.942 Y67.157 E4.49488
G1 X140.452 Y67.657 E4.56109
G1 X141.172 Y67.967 E4.59372
G1 X141.922 Y68.337 E4.62853
G1 X142.952 Y68.967 E4.67880
G1 X144.042 Y69.767 E4.73508
G1 X144.332 Y70.007 E4.75075
G1 X145.732 Y71.377 E4.83229
G1 X145.972 Y71.657 E4.84764
G1 X147.122 Y73.267 E4.93000
G1 X147.312 Y73.587 E4.94549
G1 X147.952 Y74.817 E5.00321
G1 X148.262 Y75.547 E5.03623
G1 X148.542 Y76.347 E5.07151
G1 X148.772 Y77.157 E5.10656
G1 X149.022 Y78.367 E5.15799
G1 X149.122 Y79.247 E5.19486
G1 X149.142 Y79.687 E5.21320
G1 X149.152 Y119.857 E6.88538
G1 X149.122 Y120.717 E6.92120
G1 X149.082 Y121.147 E6.93917
G1 X148.952 Y121.997 E6.97497
G1 X148.682 Y123.187 E7.02576
G1 X148.422 Y124.027 E7.06237
G1 X147.952 Y125.177 E7.11408
G1 X147.232 Y126.537 E7.17814
G1 X147.042 Y126.847 E7.19328
G1 X146.102 Y128.167 E7.26073
G1 X145.582 Y128.787 E7.29442
G1 X145.282 Y129.107 E7.31268
G1 X144.662 Y129.707 E7.34859
G1 X144.042 Y130.227 E7.38228
G1 X142.722 Y131.167 E7.44974
G1 X142.412 Y131.357 E7.46487
G1 X141.052 Y132.077 E7.52893
G1 X140.312 Y132.387 E7.56233
G1 X139.902 Y132.547 E7.58065
G1 X139.062 Y132.807 E7.61725
G1 X137.872 Y133.077 E7.66805
G1 X137.022 Y133.207 E7.70384
G1 X136.592 Y133.247 E7.72182
G1 X135.732 Y133.277 E7.75764
G1 X63.812 Y133.267 E10.75149
G1 X63.372 Y133.247 E10.76983
G1 X62.492 Y133.147 E10.80670
G1 X61.282 Y132.897 E10.85813
G1 X60.472 Y132.667 E10.89318
G1 X59.672 Y132.387 E10.92846
G1 X58.942 Y132.077 E10.96148
G1 X57.712 Y131.437 E11.01920
G1 X57.392 Y131.247 E11.03469
G1 X55.782 Y130.097 E11.11705
G1 X55.502 Y129.857 E11.13240
G1 X54.132 Y128.457 E11.21394
G1 X53.892 Y128.167 E11.22961
G1 X53.092 Y127.077 E11.28590
G1 X52.672 Y126.407 E11.31881
G1 X52.272 Y125.677 E11.35346
G1 X51.922 Y124.917 E11.38830
G1 X51.782 Y124.577 E11.40360
G1 X51.282 Y123.067 E11.46982
G1 X51.092 Y122.317 E11.50202
G1 X51.012 Y121.907 E11.51941
G1 X50.902 Y121.087 E11.55385
G1 X50.842 Y120.267 E11.58808
G1 X50.832 Y80.137 E13.25859
G1 X50.862 Y79.317 E13.29275
G1 X51.012 Y78.087 E13.34433
G1 X51.092 Y77.677 E13.36172
G1 X51.282 Y76.927 E13.39393
G1 X51.782 Y75.417 E13.46014
G1 X51.922 Y75.077 E13.47545
G1 X52.802 Y73.367 E13.55550
G1 X53.002 Y73.047 E13.57121
G1 X54.022 Y71.657 E13.64298
G1 X54.262 Y71.377 E13.65833
G1 X55.502 Y70.137 E13.73133
G1 X55.698 Y69.969 E13.74209
G1 X55.782 Y69.897 E13.74668
G1 X56.262 Y70.457 F7800.000
G1 X57.562 Y69.507 F540.000 E13.81371
G1 X57.882 Y69.307 E13.82942
G1 X59.482 Y68.477 E13.90445
G1 X59.822 Y68.337 E13.91976
G1 X61.162 Y67.887 E13.97860
G1 X62.282 Y67.627 E14.02646
G1 X62.672 Y67.557 E14.04295
G1 X63.462 Y67.467 E14.07605
G1 X64.252 Y67.437 E14.10896
G1 X136.122 Y67.447 E17.10073
G1 X136.892 Y67.507 E17.13288
G1 X138.032 Y67.687 E17.18093
G1 X138.752 Y67.867 E17.21182
G1 X140.172 Y68.337 E17.27409
G1 X140.872 Y68.637 E17.30579
G1 X141.572 Y68.987 E17.33837
G1 X141.912 Y69.177 E17.35458
G1 X142.552 Y69.587 E17.38622
G1 X143.572 Y70.337 E17.43892
G1 X143.862 Y70.577 E17.45459
G1 X145.172 Y71.857 E17.53084
G1 X145.412 Y72.137 E17.54619
G1 X146.492 Y73.647 E17.62347
G1 X146.682 Y73.967 E17.63896
G1 X147.272 Y75.117 E17.69276
G1 X147.582 Y75.817 E17.72463
G1 X147.842 Y76.567 E17.75768
G1 X148.052 Y77.327 E17.79050
G1 X148.222 Y78.077 E17.82251
G1 X148.342 Y78.887 E17.85660
G1 X148.412 Y79.717 E17.89127
G1 X148.422 Y119.857 E19.56220
G1 X148.392 Y120.657 E19.59553
G1 X148.302 Y121.457 E19.62904
G1 X148.232 Y121.857 E19.64594
G1 X147.972 Y122.997 E19.69462
G1 X147.582 Y124.167 E19.74596
G1 X147.272 Y124.877 E19.77821
G1 X146.602 Y126.157 E19.83835
G1 X146.412 Y126.467 E19.85348
G1 X145.532 Y127.697 E19.91644
G1 X145.032 Y128.297 E19.94895
G1 X144.752 Y128.597 E19.96603
G1 X144.172 Y129.157 E19.99959
G1 X143.572 Y129.657 E20.03211
G1 X142.342 Y130.537 E20.09506
G1 X142.032 Y130.727 E20.11020
G1 X140.752 Y131.397 E20.17034
G1 X140.042 Y131.707 E20.20259
G1 X138.872 Y132.097 E20.25393
G1 X137.732 Y132.357 E20.30260
G1 X137.332 Y132.427 E20.31951
G1 X136.532 Y132.517 E20.35302
G1 X135.732 Y132.547 E20.38634
G1 X63.842 Y132.537 E23.37895
G1 X63.012 Y132.467 E23.41362
G1 X62.202 Y132.347 E23.44771
G1 X61.452 Y132.177 E23.47972
G1 X60.692 Y131.967 E23.51254
G1 X59.942 Y131.707 E23.54559
G1 X59.242 Y131.397 E23.57746
G1 X58.092 Y130.807 E23.63126
G1 X57.772 Y130.617 E23.64675
G1 X56.262 Y129.537 E23.72403
G1 X55.982 Y129.297 E23.73938
G1 X54.702 Y127.987 E23.81563
G1 X54.462 Y127.697 E23.83130
G1 X53.712 Y126.677 E23.88400
G1 X53.302 Y126.037 E23.91564
G1 X52.932 Y125.347 E23.94823
G1 X52.602 Y124.637 E23.98082
G1 X52.462 Y124.297 E23.99613
G1 X51.992 Y122.877 E24.05839
G1 X51.812 Y122.157 E24.08929
G1 X51.742 Y121.777 E24.10537
G1 X51.632 Y121.017 E24.13734
G1 X51.572 Y120.247 E24.16949
G1 X51.562 Y80.137 E25.83917
G1 X51.592 Y79.367 E25.87125
G1 X51.742 Y78.217 E25.91953
G1 X51.812 Y77.837 E25.93561
G1 X51.992 Y77.117 E25.96650
G1 X52.462 Y75.697 E26.02877
G1 X52.602 Y75.357 E26.04408
G1 X53.432 Y73.757 E26.11911
G1 X53.632 Y73.437 E26.13482
G1 X54.582 Y72.137 E26.20184
G1 X54.822 Y71.857 E26.21719
G1 X55.982 Y70.697 E26.28548
G1 X56.178 Y70.529 E26.29624
G1 X56.262 Y70.457 E26.30083
G1 F1800.000 E25.30083
G92 E0
G1 X135.870 Y79.803 F7800.000
G1 F1800.000 E1.00000
G1 X136.072 Y80.005 F540.000 E1.01191
G1 X136.218 Y80.293 E1.02534
G1 X136.219 Y119.706 E2.66600
G1 X136.072 Y119.995 E2.67949
G1 X135.979 Y120.104 E2.68547
G1 X135.748 Y120.273 E2.69738
G1 X135.582 Y120.343 E2.70487
G1 X64.418 Y120.343 E5.66727
G1 X64.130 Y120.197 E5.68070
G1 X63.928 Y119.995 E5.69261
G1 X63.781 Y119.706 E5.70611
G1 X63.781 Y80.294 E7.34670
G1 X63.928 Y80.005 E7.36020
G1 X64.130 Y79.803 E7.37211
G1 X64.252 Y79.727 E7.37809
G1 X64.418 Y79.657 E7.38558
G1 X135.582 Y79.657 E10.34798
G1 X135.776 Y79.745 E10.35684
G1 X135.870 Y79.803 E10.36143
G1 X136.305 Y79.207 F7800.000
G1 X136.501 Y79.374 F540.000 E10.37214
G1 X136.668 Y79.570 E10.38286
G1 X136.804 Y79.789 E10.39358
G1 X136.904 Y80.026 E10.40429
G1 X136.953 Y80.226 E10.41286
G1 X136.954 Y119.772 E12.05907
G1 X136.904 Y119.974 E12.06775
G1 X136.804 Y120.211 E12.07847
G1 X136.668 Y120.430 E12.08918
G1 X136.501 Y120.626 E12.09990
G1 X136.305 Y120.793 E12.11062
G1 X136.086 Y120.929 E12.12133
G1 X135.849 Y121.029 E12.13205
G1 X135.649 Y121.078 E12.14062
G1 X64.351 Y121.078 E15.10861
G1 X64.151 Y121.029 E15.11718
G1 X63.914 Y120.929 E15.12790
G1 X63.695 Y120.793 E15.13861
G1 X63.499 Y120.626 E15.14933
G1 X63.332 Y120.430 E15.16004
G1 X63.196 Y120.211 E15.17076
G1 X63.096 Y119.974 E15.18148
G1 X63.046 Y119.772 E15.19016
G1 X63.046 Y80.228 E16.83625
G1 X63.096 Y80.026 E16.84494
G1 X63.196 Y79.789 E16.85566
G1 X63.332 Y79.570 E16.86637
G1 X63.499 Y79.374 E16.87709
G1 X63.695 Y79.207 E16.88780
G1 X63.914 Y79.071 E16.89852
G1 X64.151 Y78.971 E16.90924
G1 X64.351 Y78.922 E16.91781
G1 X135.649 Y78.922 E19.88580
G1 X135.849 Y78.971 E19.89437
G1 X136.086 Y79.071 E19.90508
G1 X136.211 Y79.149 E19.91121
G1 X136.305 Y79.207 E19.91580
G1 X136.741 Y78.611 F7800.000
G1 X137.023 Y78.852 F540.000 E19.93126
G1 X137.264 Y79.135 E19.94672
G1 X137.459 Y79.450 E19.96217
G1 X137.604 Y79.793 E19.97763
G1 X137.689 Y80.135 E19.99233
G1 X137.690 Y119.862 E21.64606
G1 X137.604 Y120.207 E21.66088
G1 X137.459 Y120.550 E21.67634
G1 X137.264 Y120.865 E21.69180
G1 X137.023 Y121.148 E21.70726
G1 X136.740 Y121.389 E21.72271
G1 X136.425 Y121.584 E21.73817
G1 X136.082 Y121.729 E21.75363
G1 X135.740 Y121.814 E21.76833
G1 X64.260 Y121.814 E24.74385
G1 X63.918 Y121.729 E24.75855
G1 X63.575 Y121.584 E24.77401
G1 X63.260 Y121.389 E24.78947
G1 X62.977 Y121.148 E24.80493
G1 X62.736 Y120.865 E24.82038
G1 X62.541 Y120.550 E24.83584
G1 X62.396 Y120.207 E24.85130
G1 X62.310 Y119.862 E24.86612
G1 X62.310 Y80.138 E26.51973
G1 X62.396 Y79.793 E26.53455
G1 X62.541 Y79.450 E26.55001
G1 X62.736 Y79.135 E26.56547
G1 X62.977 Y78.852 E26.58093
G1 X63.260 Y78.611 E26.59639
G1 X63.575 Y78.416 E26.61184
G1 X63.918 Y78.271 E26.62730
G1 X64.260 Y78.186 E26.64200
G1 X135.740 Y78.186 E29.61752
G1 X136.082 Y78.271 E29.63222
G1 X136.425 Y78.416 E29.64768
G1 X136.647 Y78.553 E29.65855
G1 X136.741 Y78.611 E29.66314
G1 X137.092 Y79.264 F7800.000
G1 F1800.000 E28.66314
G92 E0
G1 X64.751 Y119.841 F7800.000
G1 F1800.000 E1.00000
G1 X64.283 Y119.373 F1080.000 E1.02781
G1 X64.283 Y118.324 E1.07187
G1 X65.801 Y119.841 E1.16199
G1 X66.850 Y119.841 E1.20605
G1 X64.283 Y117.274 E1.35847
G1 X64.283 Y116.225 E1.40253
G1 X67.899 Y119.841 E1.61727
G1 X68.949 Y119.841 E1.66133
G1 X64.283 Y115.176 E1.93838
G1 X64.283 Y114.126 E1.98244
G1 X69.998 Y119.841 E2.32180
G1 X71.047 Y119.841 E2.36586
G1 X64.283 Y113.077 E2.76752
G1 X64.283 Y112.028 E2.81158
G1 X72.097 Y119.841 E3.27555
G1 X73.146 Y119.841 E3.31961
G1 X64.283 Y110.978 E3.84589
G1 X64.283 Y109.929 E3.88995
G1 X74.195 Y119.841 E4.47854
G1 X75.245 Y119.841 E4.52260
G1 X64.283 Y108.880 E5.17350
G1 X64.283 Y107.830 E5.21756
G1 X76.294 Y119.841 E5.93077
G1 X77.343 Y119.841 E5.97483
G1 X64.283 Y106.781 E6.75035
G1 X64.283 Y105.732 E6.79441
G1 X78.393 Y119.841 E7.63224
G1 X79.442 Y119.841 E7.67630
G1 X64.283 Y104.682 E8.57644
G1 X64.283 Y103.633 E8.62050
G1 X80.491 Y119.841 E9.58295
G1 X81.541 Y119.841 E9.62701
G1 X64.283 Y102.584 E10.65177
G1 X64.283 Y101.534 E10.69583
G1 X82.590 Y119.841 E11.78289
G1 X83.639 Y119.841 E11.82695
G1 X64.283 Y100.485 E12.97632
G1 X64.283 Y99.436 E13.02038
G1 X84.689 Y119.841 E14.23206
G1 X85.738 Y119.841 E14.27612
G1 X64.283 Y98.386 E15.55011
G1 X64.283 Y97.337 E15.59417
G1 X86.787 Y119.841 E16.93048
G1 X87.837 Y119.841 E16.97454
G1 X64.283 Y96.288 E18.37315
G1 X64.283 Y95.238 E18.41721
G1 X88.886 Y119.841 E19.87813
G1 X89.935 Y119.841 E19.92219
G1 X64.283 Y94.189 E21.44542
G1 X64.283 Y93.140 E21.48948
G1 X90.985 Y119.841 E23.07502
G1 X92.034 Y119.841 E23.11907
G1 X64.283 Y92.090 E24.76692
G1 X64.283 Y91.041 E24.81098
G1 X93.083 Y119.841 E26.52113
G1 X94.132 Y119.841 E26.56519
G1 X64.283 Y89.992 E28.33766
G1 X64.283 Y88.942 E28.38172
G1 X95.182 Y119.841 E30.21649
G1 X96.231 Y119.841 E30.26055
G1 X64.283 Y87.893 E32.15764
G1 X64.283 Y86.844 E32.20170
G1 X97.281 Y119.841 E34.16109
G1 X98.330 Y119.841 E34.20515
G1 X64.283 Y85.795 E36.22685
G1 X64.283 Y84.745 E36.27091
G1 X99.379 Y119.841 E38.35492
G1 X100.428 Y119.841 E38.39898
G1 X64.283 Y83.696 E40.54530
G1 X64.283 Y82.647 E40.58936
G1 X101.478 Y119.841 E42.79799
G1 X102.527 Y119.841 E42.84205
G1 X64.283 Y81.597 E45.11299
G1 X64.283 Y80.548 E45.15705
G1 X103.576 Y119.841 E47.49030
G1 X104.626 Y119.841 E47.53436
G1 X64.943 Y80.159 E49.89072
G1 X65.992 Y80.159 E49.93478
G1 X105.675 Y119.841 E52.29114
G1 X106.724 Y119.841 E52.33520
G1 X67.042 Y80.159 E54.69156
G1 X68.091 Y80.159 E54.73561
G1 X107.774 Y119.841 E57.09198
G1 X108.823 Y119.841 E57.13604
G1 X69.140 Y80.159 E59.49240
G1 X70.190 Y80.159 E59.53646
G1 X109.872 Y119.841 E61.89282
G1 X110.922 Y119.841 E61.93688
G1 X71.239 Y80.159 E64.29324
G1 X72.288 Y80.159 E64.33730
G1 X111.971 Y119.841 E66.69366
G1 X113.020 Y119.841 E66.73772
G1 X73.338 Y80.159 E69.09408
G1 X74.387 Y80.159 E69.13814
G1 X114.070 Y119.841 E71.49450
G1 X115.119 Y119.841 E71.53856
G1 X75.436 Y80.159 E73.89492
G1 X76.486 Y80.159 E73.93898
G1 X116.168 Y119.841 E76.29534
G1 X117.218 Y119.841 E76.33940
G1 X77.535 Y80.159 E78.69576
G1 X78.584 Y80.159 E78.73982
G1 X118.267 Y119.841 E81.09618
G1 X119.316 Y119.841 E81.14024
G1 X79.634 Y80.159 E83.49660
G1 X80.683 Y80.159 E83.54066
G1 X120.366 Y119.841 E85.89701
G1 X121.415 Y119.841 E85.94107
G1 X81.732 Y80.159 E88.29744
G1 X82.782 Y80.159 E88.34150
G1 X122.464 Y119.841 E90.69786
G1 X123.514 Y119.841 E90.74192
G1 X83.831 Y80.159 E93.09828
G1 X84.880 Y80.159 E93.14234
G1 X124.563 Y119.841 E95.49870
G1 X125.612 Y119.841 E95.54276
G1 X85.930 Y80.159 E97.89912
G1 X86.979 Y80.159 E97.94318
G1 X126.662 Y119.841 E100.29954
G1 X127.711 Y119.841 E100.34360
G1 X88.028 Y80.159 E102.69996
G1 X89.078 Y80.159 E102.74402
G1 X128.760 Y119.841 E105.10037
G1 X129.810 Y119.841 E105.14443
G1 X90.127 Y80.159 E107.50080
G1 X91.176 Y80.159 E107.54486
G1 X130.859 Y119.841 E109.90122
G1 X131.908 Y119.841 E109.94528
G1 X92.226 Y80.159 E112.30164
G1 X93.275 Y80.159 E112.34570
G1 X132.958 Y119.841 E114.70206
G1 X134.007 Y119.841 E114.74612
G1 X94.324 Y80.159 E117.10248
G1 X95.374 Y80.159 E117.14654
G1 X135.056 Y119.841 E119.50290
G1 X135.717 Y119.453 E119.53509
G1 X96.423 Y80.159 E121.86837
G1 X97.472 Y80.159 E121.91243
G1 X135.717 Y118.403 E124.18341
G1 X135.717 Y117.354 E124.22747
G1 X98.522 Y80.159 E126.43613
G1 X99.571 Y80.159 E126.48019
G1 X135.717 Y116.305 E128.62655
G1 X135.717 Y115.255 E128.67061
G1 X100.620 Y80.159 E130.75466
G1 X101.670 Y80.159 E130.79872
G1 X135.717 Y114.206 E132.82045
G1 X135.717 Y113.157 E132.86451
G1 X102.719 Y80.159 E134.82393
G1 X103.768 Y80.159 E134.86799
G1 X135.717 Y112.107 E136.76511
G1 X135.717 Y111.058 E136.80917
G1 X104.818 Y80.159 E138.64397
G1 X105.867 Y80.159 E138.68803
G1 X135.717 Y110.009 E140.46052
G1 X135.717 Y108.959 E140.50458
G1 X106.916 Y80.159 E142.21477
G1 X107.966 Y80.159 E142.25883
G1 X135.717 Y107.910 E143.90670
G1 X135.717 Y106.861 E143.95076
G1 X109.015 Y80.159 E145.53632
G1 X110.064 Y80.159 E145.58038
G1 X135.717 Y105.811 E147.10364
G1 X135.717 Y104.762 E147.14770
G1 X111.114 Y80.159 E148.60864
G1 X112.163 Y80.159 E148.65270
G1 X135.717 Y103.713 E150.05133
G1 X135.717 Y102.663 E150.09539
G1 X113.212 Y80.159 E151.43171
G1 X114.262 Y80.159 E151.47577
G1 X135.717 Y101.614 E152.74978
G1 X135.717 Y100.565 E152.79384
G1 X115.311 Y80.159 E154.00554
G1 X116.360 Y80.159 E154.04960
G1 X135.717 Y99.515 E155.19899
G1 X135.717 Y98.466 E155.24305
G1 X117.409 Y80.159 E156.33013
G1 X118.459 Y80.159 E156.37419
G1 X135.717 Y97.416 E157.39897
G1 X135.717 Y96.367 E157.44303
G1 X119.508 Y80.159 E158.40549
G1 X120.558 Y80.159 E158.44955
G1 X135.717 Y95.318 E159.34970
G1 X135.717 Y94.268 E159.39377
G1 X121.607 Y80.158 E160.23161
G1 X122.656 Y80.158 E160.27567
G1 X135.717 Y93.219 E161.05120
G1 X135.717 Y92.169 E161.09526
G1 X123.706 Y80.158 E161.80848
G1 X124.755 Y80.158 E161.85254
G1 X135.717 Y91.120 E162.50345
G1 X135.717 Y90.071 E162.54750
G1 X125.804 Y80.158 E163.13611
G1 X126.854 Y80.158 E163.18017
G1 X135.717 Y89.021 E163.70646
G1 X135.717 Y87.972 E163.75052
G1 X127.903 Y80.158 E164.21450
G1 X128.952 Y80.158 E164.25856
G1 X135.717 Y86.923 E164.66023
G1 X135.717 Y85.873 E164.70429
G1 X130.002 Y80.158 E165.04364
G1 X131.051 Y80.158 E165.08770
G1 X135.717 Y84.824 E165.36475
G1 X135.717 Y83.775 E165.40881
G1 X132.100 Y80.158 E165.62355
G1 X133.150 Y80.158 E165.66761
G1 X135.717 Y82.725 E165.82004
G1 X135.717 Y81.676 E165.86410
G1 X134.199 Y80.158 E165.95421
G1 X135.248 Y80.159 E165.99824
G1 X135.716 Y80.627 E166.02604
G1 F1800.000 E165.02604
G92 E0
G1 Z0.800 F7800.000
G1 X63.211 Y119.746
G1 F1800.000 E1.00000
G1 X63.211 Y80.254 F1800.000 E2.16126
G1 X63.254 Y80.079 E2.16658
G1 X63.344 Y79.865 E2.17340
G1 X63.466 Y79.668 E2.18021
G1 X63.617 Y79.492 E2.18702
G1 X63.793 Y79.341 E2.19384
